; generated by PrusaSlicer 2.4.0+win64 on 2022-01-05 at 18:08:52 UTC


;
;

;
;
; 

; external perimeters extrusion width = 0.45mm
; perimeters extrusion width = 0.45mm
; infill extrusion width = 0.45mm
; solid infill extrusion width = 0.45mm
; top infill extrusion width = 0.40mm
; first layer extrusion width = 0.42mm

; external perimeters extrusion width = 0.45mm
; perimeters extrusion width = 0.45mm
; infill extrusion width = 0.45mm
; solid infill extrusion width = 0.45mm
; top infill extrusion width = 0.40mm
; first layer extrusion width = 0.42mm

M73 P0 R22
M201 X2500 Y2500 Z400 E5000 ; sets maximum accelerations, mm/sec^2
M203 X180 Y180 Z12 E80 ; sets maximum feedrates, mm/sec
M204 P1250 R1250 T2500 ; sets acceleration (P, T) and retract acceleration (R), mm/sec^2
M205 X8.00 Y8.00 Z2.00 E10.00 ; sets the jerk limits, mm/sec
M205 S0 T0 ; sets the minimum extruding and travel feed rate, mm/sec
M107
;TYPE:Custom
G90 ; use absolute coordinates
M83 ; extruder relative mode
M104 S170 ; set extruder temp for bed leveling
M140 S85 ; set bed temp
M109 R170 ; wait for bed leveling temp
M190 S85 ; wait for bed temp
M204 T1250 ; set travel acceleration
G28 ; home all without mesh bed level
G29 ; mesh bed leveling 
M204 T2500 ; restore travel acceleration
M104 S240 ; set extruder temp
G92 E0
G1 Y-2 X179 F2400
G1 Z3 F720
M109 S240 ; wait for extruder temp

; intro line
G1 X170 F1000
G1 Z0.2 F720
G1 X110 E8 F900
G1 X40 E10 F700
G92 E0

M221 S95 ; set flow
G21 ; set units to millimeters
G90 ; use absolute coordinates
M83 ; use relative distances for extrusion
M900 K0.2 ; Filament gcode
M107
;LAYER_CHANGE
;Z:0.2
;HEIGHT:0.2
;BEFORE_LAYER_CHANGE
G92 E0.0
;0.2


G1 E-3.2 F2400
M73 P1 R22
G1 Z.2 F720
;AFTER_LAYER_CHANGE
;0.2
G1 Z.4
G1 X79.031 Y86.597 F9000
G1 Z.2 F720
G1 E3.2 F1500
M204 P800
;TYPE:Skirt/Brim
;WIDTH:0.42
G1 F1200
M73 P1 R21
G1 X79.94 Y85.939 E.0352
G1 X80.947 Y85.449 E.0351
G1 X92.726 Y81.383 E.39073
G1 X94.213 Y81.004 E.0481
G1 X95.815 Y80.891 E.05036
G1 X97.095 Y81.014 E.0403
G1 X98.343 Y81.322 E.0403
G1 X99.622 Y81.856 E.04346
G1 X100.72 Y82.525 E.04031
G1 X101.707 Y83.348 E.0403
G1 X102.644 Y84.414 E.04451
G1 X103.375 Y85.574 E.04298
G1 X103.887 Y86.753 E.0403
G1 X104.222 Y87.994 E.0403
G1 X104.37 Y89.271 E.0403
G1 X104.319 Y90.656 E.04347
G1 X104.077 Y91.919 E.0403
G1 X103.653 Y93.132 E.0403
G1 X103.055 Y94.27 E.0403
G1 X102.298 Y95.309 E.0403
G1 X101.396 Y96.225 E.0403
G1 X100.096 Y97.169 E.05035
G1 X98.646 Y97.859 E.05035
G1 X97.095 Y98.273 E.05035
G1 X95.495 Y98.396 E.05029
G1 X82.163 Y97.997 E.41821
G1 X81.028 Y97.713 E.03667
G1 X80.011 Y97.258 E.03495
G1 X79.123 Y96.652 E.0337
G1 X78.324 Y95.868 E.0351
G1 X77.597 Y94.831 E.03972
G1 X77.07 Y93.622 E.04134
G1 X76.805 Y92.375 E.03998
G1 X76.791 Y91.116 E.03947
G1 X77.042 Y89.741 E.04383
G1 X77.47 Y88.618 E.03769
G1 X78.128 Y87.557 E.03915
G1 X78.99 Y86.641 E.03943
M204 P1000
G1 X79.264 Y86.913 F9000
M204 P800
G1 F1200
G1 X79.384 Y86.792 E.00536
G1 X80.253 Y86.193 E.0331
G1 X81.157 Y85.772 E.03124
G1 X92.873 Y81.731 E.3886
G1 X94.365 Y81.362 E.04818
G1 X95.812 Y81.269 E.04546
G1 X97.036 Y81.386 E.03857
G1 X98.23 Y81.682 E.03857
G1 X99.446 Y82.189 E.0413
G1 X100.496 Y82.829 E.03857
G1 X101.598 Y83.771 E.04546
G1 X102.394 Y84.709 E.03857
G1 X103.084 Y85.831 E.0413
G1 X103.561 Y86.964 E.03856
G1 X103.868 Y88.156 E.03857
G1 X103.997 Y89.379 E.03857
G1 X103.945 Y90.608 E.03857
G1 X103.654 Y92.028 E.04546
G1 X103.219 Y93.179 E.03857
G1 X102.619 Y94.253 E.03857
G1 X101.868 Y95.227 E.03857
G1 X100.916 Y96.137 E.0413
G1 X99.908 Y96.842 E.03857
G1 X98.807 Y97.392 E.03857
G1 X97.638 Y97.774 E.03857
G1 X96.426 Y97.982 E.03857
G1 X95.505 Y98.019 E.02889
G1 X82.883 Y97.68 E.39591
G1 X81.629 Y97.502 E.03972
G1 X80.416 Y97.046 E.04061
G1 X79.404 Y96.395 E.03774
G1 X78.516 Y95.511 E.03927
G1 X77.837 Y94.484 E.03861
G1 X77.414 Y93.46 E.03474
G1 X77.178 Y92.314 E.03667
G1 X77.176 Y91.049 E.03969
G1 X77.428 Y89.762 E.04112
G1 X77.869 Y88.664 E.0371
G1 X78.55 Y87.631 E.03879
G1 X79.221 Y86.956 E.02985
M204 P1000
; printing object bullet.stl id:1 copy 0
G1 E-2.24 F2400
;WIPE_START
G1 F7200
G1 X79.384 Y86.792 E-.07314
G1 X80.253 Y86.193 E-.33435
G1 X81.157 Y85.772 E-.3155
G1 X81.721 Y85.578 E-.18902
;WIPE_END
G1 E-.048 F2400
G1 Z.4 F720
G1 X81.112 Y89.27 F9000
G1 Z.2 F720
G1 E3.2 F1500
M204 P800
;TYPE:External perimeter
G1 F1200
G1 X81.358 Y89.07 E.00996
G1 X81.622 Y88.897 E.00988
G1 X81.902 Y88.753 E.00987
G1 X82.464 Y88.553 E.01871
G1 X83.031 Y88.463 E.01799
G1 X83.586 Y88.477 E.01743
G1 X83.881 Y88.526 E.00935
G1 X84.173 Y88.604 E.00949
G1 X84.463 Y88.714 E.00973
G1 X84.747 Y88.856 E.00993
G1 X85.017 Y89.03 E.01008
G1 X85.268 Y89.234 E.01015
G1 X85.497 Y89.464 E.01017
G1 X85.699 Y89.717 E.01015
G1 X85.871 Y89.988 E.01006
G1 X86.011 Y90.271 E.0099
G1 X86.119 Y90.56 E.00969
G1 X86.198 Y90.856 E.0096
G1 X86.265 Y91.423 E.01789
G1 X86.228 Y91.98 E.0175
G1 X86.09 Y92.544 E.01821
G1 X85.976 Y92.832 E.00971
G1 X85.833 Y93.108 E.00976
G1 X85.661 Y93.372 E.00988
G1 X85.46 Y93.619 E.00996
G1 X85.235 Y93.844 E.00999
G1 X84.988 Y94.044 E.00996
G1 X84.724 Y94.217 E.00989
G1 X84.448 Y94.36 E.00975
G1 X84.164 Y94.472 E.00958
G1 X83.872 Y94.556 E.00951
G1 X83.311 Y94.634 E.01777
G1 X82.76 Y94.608 E.01729
G1 X82.47 Y94.555 E.00926
G1 X82.183 Y94.472 E.00936
G1 X81.899 Y94.36 E.00958
G1 X81.622 Y94.217 E.00976
G1 X81.358 Y94.044 E.00988
G1 X81.112 Y93.844 E.00996
G1 X80.886 Y93.619 E.00999
G1 X80.686 Y93.372 E.00996
G1 X80.514 Y93.108 E.00988
G1 X80.371 Y92.832 E.00975
G1 X80.258 Y92.548 E.00958
G1 X80.175 Y92.256 E.00952
G1 X80.097 Y91.695 E.01777
G1 X80.122 Y91.144 E.01729
G1 X80.176 Y90.853 E.00926
G1 X80.258 Y90.566 E.00936
G1 X80.371 Y90.282 E.00958
G1 X80.514 Y90.006 E.00976
G1 X80.686 Y89.742 E.00988
G1 X80.886 Y89.495 E.00996
G1 X81.069 Y89.313 E.00811
M204 P1000
G1 X81.045 Y88.959 F9000
G1 X80.89 Y89.022
M204 P800
G1 F1200
G1 X81.096 Y88.838 E.00868
G1 X81.386 Y88.625 E.01126
G1 X81.656 Y88.465 E.00985
G1 X81.946 Y88.328 E.01005
G1 X82.266 Y88.218 E.01062
G1 X82.585 Y88.141 E.01029
G1 X82.864 Y88.1 E.00883
G1 X83.237 Y88.081 E.01172
G1 X83.575 Y88.098 E.0106
G1 X83.938 Y88.153 E.01152
G1 X84.273 Y88.24 E.01086
G1 X84.613 Y88.366 E.01135
G1 X84.875 Y88.491 E.00911
G1 X85.105 Y88.632 E.00846
G1 X85.346 Y88.806 E.00932
G1 X85.659 Y89.085 E.01313
G1 X85.893 Y89.344 E.01094
G1 X86.067 Y89.583 E.00929
G1 X86.253 Y89.902 E.01158
G1 X86.396 Y90.217 E.01085
G1 X86.518 Y90.581 E.01203
G1 X86.59 Y90.903 E.01034
G1 X86.63 Y91.215 E.00988
G1 X86.641 Y91.587 E.01166
G1 X86.62 Y91.893 E.00961
G1 X86.572 Y92.192 E.00949
G1 X86.465 Y92.578 E.01255
G1 X86.363 Y92.838 E.00877
G1 X86.173 Y93.205 E.01296
G1 X86.015 Y93.448 E.00907
G1 X85.829 Y93.685 E.00946
G1 X85.564 Y93.961 E.01201
G1 X85.333 Y94.157 E.00949
G1 X85.041 Y94.36 E.01114
G1 X84.762 Y94.515 E.01
G1 X84.456 Y94.647 E.01047
G1 X84.183 Y94.737 E.00899
G1 X83.783 Y94.83 E.01288
G1 X83.448 Y94.875 E.01059
G1 X83.116 Y94.886 E.01043
G1 X82.809 Y94.866 E.00966
G1 X82.491 Y94.816 E.01009
G1 X82.187 Y94.737 E.00984
G1 X81.866 Y94.619 E.01074
G1 X81.576 Y94.478 E.0101
G1 X81.307 Y94.315 E.00988
G1 X81.072 Y94.14 E.00918
G1 X80.801 Y93.893 E.0115
G1 X80.586 Y93.653 E.01011
G1 X80.362 Y93.341 E.01203
G1 X80.217 Y93.089 E.00912
G1 X80.058 Y92.732 E.01228
G1 X79.969 Y92.463 E.00887
G1 X79.884 Y92.073 E.01252
G1 X79.853 Y91.803 E.0085
G1 X79.845 Y91.452 E.01101
G1 X79.909 Y90.844 E.0192
G1 X80.008 Y90.444 E.0129
G1 X80.099 Y90.189 E.00849
G1 X80.28 Y89.812 E.01311
G1 X80.422 Y89.58 E.00855
G1 X80.668 Y89.255 E.01277
G1 X80.847 Y89.064 E.0082
M204 P1000
G1 X81.157 Y89.096 F9000
; stop printing object bullet.stl id:1 copy 0
; printing object cartridge.stl id:0 copy 0
G1 E-2.24 F2400
;WIPE_START
G1 F7200
G1 X81.096 Y88.838 E-.10658
G1 X81.386 Y88.625 E-.11369
G1 X81.656 Y88.465 E-.09953
G1 X81.946 Y88.328 E-.10155
G1 X82.266 Y88.218 E-.10725
G1 X82.585 Y88.141 E-.1039
G1 X82.864 Y88.1 E-.08921
G1 X83.237 Y88.081 E-.11836
G1 X83.464 Y88.092 E-.07194
;WIPE_END
G1 E-.048 F2400
G1 Z.4 F720
G1 X92.265 Y89.37 F9000
G1 Z.2 F720
G1 E3.2 F1500
M204 P800
G1 F1200
M73 P2 R21
G1 X92.279 Y89.038 E.01041
G1 X92.328 Y88.788 E.00798
G1 X92.423 Y88.468 E.01048
G1 X92.557 Y88.154 E.01071
G1 X92.723 Y87.851 E.01085
G1 X92.923 Y87.562 E.01098
G1 X93.153 Y87.295 E.01105
G1 X93.347 Y87.112 E.00838
G1 X93.493 Y86.994 E.00588
G1 X93.803 Y86.807 E.01136
G1 X94.14 Y86.684 E.01124
G1 X95.045 Y86.486 E.02906
G1 X95.613 Y86.428 E.01788
G1 X95.771 Y86.426 E.00497
G1 X96.138 Y86.474 E.01161
G1 X96.561 Y86.573 E.0136
G1 X97.029 Y86.648 E.01488
G1 X97.371 Y86.762 E.0113
G1 X97.686 Y86.941 E.01134
G1 X97.836 Y87.055 E.00592
G1 X98.095 Y87.293 E.01103
G1 X98.273 Y87.495 E.00842
G1 X98.479 Y87.777 E.01096
G1 X98.654 Y88.077 E.01089
G1 X98.795 Y88.389 E.01075
G1 X98.9 Y88.708 E.01053
G1 X98.955 Y88.958 E.00803
G1 X98.978 Y89.283 E.01021
G1 X98.971 Y89.455 E.00539
G1 X98.914 Y89.764 E.00986
G1 X98.801 Y90.104 E.01124
G1 X98.731 Y90.452 E.01112
G1 X98.61 Y90.824 E.01226
G1 X98.476 Y91.118 E.01012
G1 X98.309 Y91.403 E.01037
G1 X97.955 Y91.851 E.01789
G1 X97.712 Y92.082 E.01054
G1 X97.449 Y92.284 E.01037
G1 X97.171 Y92.457 E.01028
G1 X96.88 Y92.598 E.01013
G1 X96.583 Y92.707 E.00994
G1 X96.283 Y92.785 E.0097
G1 X95.985 Y92.833 E.00947
G1 X95.624 Y92.854 E.01133
G1 X95.264 Y92.833 E.01133
G1 X94.966 Y92.785 E.00947
G1 X94.666 Y92.707 E.0097
G1 X94.369 Y92.598 E.00994
G1 X94.078 Y92.457 E.01013
G1 X93.799 Y92.284 E.01028
G1 X93.537 Y92.082 E.01037
G1 X93.296 Y91.854 E.01041
G1 X93.082 Y91.603 E.01033
G1 X92.789 Y91.199 E.01566
G1 X92.538 Y90.528 E.02245
G1 X92.445 Y90.109 E.01348
G1 X92.323 Y89.763 E.01151
G1 X92.274 Y89.429 E.01056
M204 P1000
G1 X91.97 Y89.219 F9000
G1 E-2.24 F2400
;WIPE_START
G1 F7200
G1 X92.279 Y89.038 E-.12385
G1 X92.328 Y88.788 E-.08064
G1 X92.423 Y88.468 E-.10581
G1 X92.557 Y88.154 E-.10813
G1 X92.723 Y87.851 E-.10958
G1 X92.923 Y87.562 E-.11094
G1 X93.153 Y87.295 E-.11165
G1 X93.347 Y87.112 E-.08466
G1 X93.493 Y86.994 E-.05936
G1 X93.54 Y86.966 E-.01738
;WIPE_END
G1 E-.048 F2400
G1 Z.4 F720
G1 X93.255 Y85.162 F9000
G1 Z.2 F720
G1 E3.2 F1500
M204 P800
;TYPE:Perimeter
G1 F1200
G1 X93.252 Y85.432 E.00849
G1 X93.305 Y85.698 E.00849
G1 X93.404 Y85.935 E.00804
G1 X93.563 Y86.176 E.00906
G1 X93.835 Y86.394 E.01092
G1 X93.64 Y86.465 E.00652
G1 X93.277 Y86.685 E.0133
G1 X93.099 Y86.827 E.00714
G1 X92.88 Y87.034 E.00946
G1 X92.624 Y87.332 E.01229
G1 X92.402 Y87.652 E.01222
G1 X92.217 Y87.989 E.01206
G1 X92.068 Y88.34 E.01196
G1 X91.961 Y88.698 E.01172
G1 X91.904 Y88.994 E.00945
G1 X91.887 Y89.39 E.01241
G1 X91.918 Y89.599 E.00662
G1 X91.333 Y89.735 E.01883
G1 X90.444 Y90.177 E.03112
G1 X90.567 Y90.444 E.00922
G1 X90.488 Y90.492 E.00291
G1 X90.386 Y90.469 E.00327
G1 X90.435 Y89.158 E.04112
G1 X90.483 Y88.785 E.01178
G1 X90.559 Y88.415 E.01184
G1 X90.727 Y87.861 E.01817
G1 X90.955 Y87.328 E.01817
G1 X91.132 Y87 E.01167
G1 X91.456 Y86.514 E.01834
G1 X91.694 Y86.22 E.01184
G1 X91.952 Y85.944 E.01184
G1 X92.386 Y85.559 E.01819
G1 X92.865 Y85.219 E.01844
G1 X93.296 Y84.958 E.0158
G1 X93.267 Y85.103 E.00465
M204 P1000
G1 E-2.24 F2400
;WIPE_START
G1 F7200
G1 X93.252 Y85.432 E-.10444
G1 X93.305 Y85.698 E-.08577
G1 X93.404 Y85.935 E-.0812
G1 X93.563 Y86.176 E-.09153
G1 X93.835 Y86.394 E-.11031
G1 X93.64 Y86.465 E-.06587
G1 X93.277 Y86.685 E-.1343
G1 X93.099 Y86.827 E-.07209
G1 X92.88 Y87.034 E-.09553
G1 X92.734 Y87.204 E-.07096
;WIPE_END
G1 E-.048 F2400
G1 Z.4 F720
G1 X95.364 Y84.225 F9000
G1 Z.2 F720
G1 E3.2 F1500
M204 P800
;TYPE:External perimeter
G1 F1200
G1 X95.701 Y85.999 E.05662
G1 X94.627 Y86.204 E.03428
G1 X94.374 Y86.209 E.00793
G1 X94.13 Y86.147 E.0079
G1 X93.845 Y85.919 E.01143
G1 X93.739 Y85.757 E.00609
G1 X93.668 Y85.587 E.00577
G1 X93.63 Y85.397 E.00609
G1 X93.632 Y85.201 E.00614
G1 X93.67 Y85.008 E.00617
G1 X93.756 Y84.83 E.0062
G1 X93.91 Y84.63 E.00792
G1 X94.2 Y84.451 E.01067
G1 X94.392 Y84.392 E.0063
G1 X95.305 Y84.234 E.02905
M204 P1000
G1 X95.757 Y84.15 F9000
G1 E-2.24 F2400
;WIPE_START
G1 F7200
G1 X95.701 Y85.999 E-.57286
G1 X94.649 Y86.199 E-.33914
;WIPE_END
G1 E-.048 F2400
G1 Z.4 F720
G1 X96.813 Y85.353 F9000
G1 Z.2 F720
G1 E3.2 F1500
M204 P800
G1 F1200
G1 X96.801 Y85.397 E.00145
G1 X97.157 Y85.486 E.01149
G1 X97.252 Y85.819 E.01086
G1 X97.001 Y86.065 E.01101
G1 X96.735 Y86.185 E.00916
G1 X96.41 Y86.187 E.01017
G1 X96.104 Y86.102 E.00998
G1 X95.871 Y85.934 E.009
G1 X95.778 Y85.809 E.00489
G1 X95.719 Y85.646 E.00544
G1 X95.716 Y85.464 E.0057
G1 X95.779 Y85.274 E.00628
G1 X95.86 Y85.185 E.00377
G1 X95.817 Y85.039 E.00478
G1 X95.825 Y84.884 E.00486
G1 X95.896 Y84.645 E.00781
G1 X96.079 Y84.427 E.00895
G1 X96.387 Y84.335 E.01006
G1 X96.54 Y84.332 E.0048
G1 X96.797 Y84.381 E.00822
G1 X97.148 Y84.531 E.01196
G1 X97.296 Y84.663 E.00624
G1 X97.303 Y84.734 E.00224
G1 X97.373 Y84.825 E.0036
G1 X97.453 Y85.026 E.00678
G1 X97.448 Y85.34 E.00984
G1 X97.141 Y85.434 E.01008
G1 X96.871 Y85.367 E.00874
M204 P1000
G1 X96.829 Y85.396 F9000
G1 E-2.24 F2400
;WIPE_START
G1 F7200
G1 X96.801 Y85.397 E-.02398
G1 X97.157 Y85.486 E-.11609
G1 X97.252 Y85.819 E-.10965
G1 X97.001 Y86.065 E-.11124
G1 X96.735 Y86.185 E-.09253
G1 X96.41 Y86.187 E-.10271
G1 X96.104 Y86.102 E-.10081
G1 X95.871 Y85.934 E-.09092
G1 X95.778 Y85.809 E-.04935
G1 X95.719 Y85.646 E-.05497
G1 X95.716 Y85.464 E-.05752
G1 X95.718 Y85.457 E-.00222
;WIPE_END
G1 E-.048 F2400
G1 Z.4 F720
G1 X98.127 Y85.066 F9000
G1 Z.2 F720
G1 E3.2 F1500
M204 P800
;TYPE:Perimeter
G1 F1200
G1 X98.637 Y85.389 E.01893
G1 X98.938 Y85.62 E.01189
G1 X99.221 Y85.87 E.01184
G1 X99.617 Y86.293 E.01817
G1 X99.961 Y86.753 E.01801
G1 X100.253 Y87.247 E.018
G1 X100.489 Y87.771 E.018
G1 X100.667 Y88.323 E.01817
G1 X100.748 Y88.686 E.01167
G1 X100.823 Y89.262 E.01822
G1 X100.855 Y90.443 E.03704
G1 X100.781 Y90.371 E.00324
G1 X100.374 Y90.081 E.01568
G1 X99.893 Y89.878 E.01634
G1 X99.295 Y89.779 E.01902
G1 X99.347 Y89.496 E.009
G1 X99.355 Y89.277 E.00688
G1 X99.329 Y88.904 E.01172
G1 X99.264 Y88.609 E.00949
G1 X99.147 Y88.252 E.01175
G1 X98.989 Y87.904 E.01201
G1 X98.795 Y87.57 E.0121
G1 X98.567 Y87.258 E.01211
G1 X98.365 Y87.029 E.00957
G1 X98.079 Y86.765 E.01221
G1 X97.894 Y86.625 E.00727
G1 X97.525 Y86.416 E.01329
G1 X97.269 Y86.33 E.00849
G1 X97.676 Y85.932 E.01788
G1 X97.606 Y85.686 E.00801
G1 X97.821 Y85.62 E.00706
G1 X97.831 Y84.956 E.02081
G1 X97.8 Y84.879 E.00262
G1 X98.075 Y85.036 E.00993
M204 P1000
G1 E-2.24 F2400
;WIPE_START
G1 F7200
G1 X98.637 Y85.389 E-.21015
G1 X98.938 Y85.62 E-.12007
G1 X99.221 Y85.87 E-.11957
G1 X99.617 Y86.293 E-.18355
G1 X99.961 Y86.753 E-.18184
G1 X100.117 Y87.016 E-.09681
;WIPE_END
G1 E-.048 F2400
G1 Z.4 F720
G1 X99.212 Y90.147 F9000
G1 Z.2 F720
G1 E3.2 F1500
M204 P800
;TYPE:External perimeter
G1 F1200
G1 X99.788 Y90.243 E.01829
G1 X100.189 Y90.412 E.01365
G1 X100.539 Y90.661 E.01345
G1 X100.95 Y91.064 E.01806
G1 X100.543 Y91.83 E.0272
G1 X99.976 Y91.757 E.01792
G1 X100.354 Y92.187 E.01793
G1 X99.93 Y92.983 E.02829
G1 X99.382 Y92.744 E.01874
G1 X99.048 Y92.532 E.0124
G1 X98.188 Y92.075 E.03054
G1 X99.184 Y90.2 E.06656
M204 P1000
G1 X99.265 Y89.751 F9000
G1 E-2.24 F2400
;WIPE_START
G1 F7200
G1 X99.788 Y90.243 E-.19156
G1 X100.189 Y90.412 E-.1379
G1 X100.539 Y90.661 E-.13586
G1 X100.95 Y91.064 E-.18245
G1 X100.559 Y91.801 E-.26424
;WIPE_END
G1 E-.048 F2400
G1 Z.4 F720
G1 X97.966 Y93.327 F9000
G1 Z.2 F720
G1 E3.2 F1500
M204 P800
G1 F1200
G1 X98.073 Y93.695 E.01203
G1 X98.402 Y94.221 E.01944
G1 X97.689 Y94.67 E.0264
G1 X96.982 Y93.502 E.04279
G1 X96.547 Y94.095 E.02305
G1 X97.012 Y94.038 E.01467
G1 X97.144 Y94.853 E.0259
G1 X95.393 Y95.067 E.05531
G1 X95.321 Y94.405 E.02089
G1 X95.753 Y93.828 E.02258
G1 X95.243 Y93.89 E.01611
G1 X95.204 Y93.577 E.0099
G1 X95.155 Y93.729 E.005
G1 X94.507 Y94.084 E.02319
G1 X94.967 Y94.229 E.01513
G1 X94.7 Y95.002 E.02566
G1 X93.067 Y94.472 E.05382
G1 X93.261 Y93.855 E.02028
G1 X93.897 Y93.51 E.0227
G1 X93.405 Y93.35 E.01621
G1 X93.651 Y92.596 E.02487
G1 X95.194 Y93.098 E.05087
G1 X96.914 Y92.886 E.05434
G1 X96.934 Y93.052 E.00524
G1 X97.033 Y92.829 E.00764
G1 X97.265 Y92.59 E.01044
