; generated by PrusaSlicer 2.4.0+win64 on 2022-01-02 at 17:10:42 UTC


;
;

;
;
; 

; external perimeters extrusion width = 0.45mm
; perimeters extrusion width = 0.45mm
; infill extrusion width = 0.45mm
; solid infill extrusion width = 0.45mm
; top infill extrusion width = 0.40mm
; support material extrusion width = 0.35mm
; first layer extrusion width = 0.42mm

M73 P0 R70
M201 X2500 Y2500 Z400 E5000 ; sets maximum accelerations, mm/sec^2
M203 X180 Y180 Z12 E80 ; sets maximum feedrates, mm/sec
M204 P1250 R1250 T2500 ; sets acceleration (P, T) and retract acceleration (R), mm/sec^2
M205 X8.00 Y8.00 Z2.00 E10.00 ; sets the jerk limits, mm/sec
M205 S0 T0 ; sets the minimum extruding and travel feed rate, mm/sec
M107
;TYPE:Custom
G90 ; use absolute coordinates
M83 ; extruder relative mode
M104 S170 ; set extruder temp for bed leveling
M140 S85 ; set bed temp
M109 R170 ; wait for bed leveling temp
M190 S85 ; wait for bed temp
M204 T1250 ; set travel acceleration
G28 ; home all without mesh bed level
G29 ; mesh bed leveling 
M204 T2500 ; restore travel acceleration
M104 S240 ; set extruder temp
G92 E0
G1 Y-2 X179 F2400
G1 Z3 F720
M109 S240 ; wait for extruder temp

; intro line
G1 X170 F1000
G1 Z0.2 F720
G1 X110 E8 F900
G1 X40 E10 F700
G92 E0

M221 S95 ; set flow
G21 ; set units to millimeters
G90 ; use absolute coordinates
M83 ; use relative distances for extrusion
M900 K0.2 ; Filament gcode
M107
;LAYER_CHANGE
;Z:0.2
;HEIGHT:0.2
;BEFORE_LAYER_CHANGE
G92 E0.0
;0.2


G1 E-3.2 F2400
G1 Z.2 F720
;AFTER_LAYER_CHANGE
;0.2
G1 Z.4
G1 X55.21 Y68.117 F9000
G1 Z.2 F720
G1 E3.2 F1500
M204 P800
;TYPE:Skirt/Brim
;WIDTH:0.42
G1 F1200
G1 X56.15 Y67.923 E.03008
G1 X122.55 Y67.923 E2.08193
G1 X123.857 Y68.315 E.04278
G1 X124.733 Y69.36 E.04278
G1 X124.927 Y70.3 E.03008
G1 X124.927 Y109.7 E1.23536
G1 X124.535 Y111.007 E.04278
G1 X123.49 Y111.883 E.04278
G1 X122.55 Y112.077 E.03008
G1 X56.15 Y112.077 E2.08193
G1 X54.843 Y111.685 E.04278
G1 X53.967 Y110.64 E.04278
G1 X53.773 Y109.7 E.03008
G1 X53.773 Y70.3 E1.23536
G1 X54.165 Y68.993 E.04278
G1 X55.164 Y68.155 E.0409
M204 P1000
; printing object KrabickaSpodek.stl id:0 copy 0
G1 E-2.24 F2400
;WIPE_START
G1 F7200
G1 X56.15 Y67.923 E-.32069
G1 X58.017 Y67.923 E-.59131
;WIPE_END
G1 E-.048 F2400
G1 Z.4 F720
G1 X57.337 Y71.087 F9000
G1 Z.2 F720
G1 E3.2 F1500
M204 P800
;TYPE:Perimeter
G1 F1200
G1 X121.763 Y71.087 E2.02003
G1 X121.763 Y108.913 E1.186
G1 X56.937 Y108.913 E2.03257
G1 X56.937 Y71.087 E1.186
G1 X57.277 Y71.087 E.01066
M204 P1000
G1 X56.56 Y70.71 F9000
M204 P800
;TYPE:External perimeter
G1 F1200
G1 X122.14 Y70.71 E2.05622
G1 X122.14 Y109.29 E1.20965
G1 X56.56 Y109.29 E2.05622
M73 P1 R70
G1 X56.56 Y70.77 E1.20777
M204 P1000
M73 P1 R69
G1 X56.954 Y70.781 F9000
G1 E-2.24 F2400
;WIPE_START
G1 F7200
G1 X59.44 Y70.767 E-.912
;WIPE_END
G1 E-.048 F2400
G1 Z.4 F720
G1 X120.884 Y71.2 F9000
G1 Z.2 F720
G1 E3.2 F1500
M204 P800
;TYPE:Solid infill
;WIDTH:0.421554
G1 F1200
G1 X121.48 Y71.796 E.02653
G1 X121.48 Y72.332 E.01686
G1 X120.518 Y71.37 E.04282
G1 X119.983 Y71.37 E.01686
G1 X121.48 Y72.867 E.06666
G1 X121.48 Y73.402 E.01686
G1 X119.448 Y71.37 E.0905
G1 X118.912 Y71.37 E.01686
G1 X121.48 Y73.938 E.11434
G1 X121.48 Y74.473 E.01686
G1 X118.377 Y71.37 E.13818
G1 X117.841 Y71.37 E.01686
G1 X121.48 Y75.009 E.16203
G1 X121.48 Y75.544 E.01686
G1 X117.306 Y71.37 E.18587
G1 X116.77 Y71.37 E.01686
G1 X121.48 Y76.08 E.20971
G1 X121.48 Y76.615 E.01686
G1 X116.235 Y71.37 E.23355
G1 X115.699 Y71.37 E.01686
G1 X121.48 Y77.151 E.25739
G1 X121.48 Y77.686 E.01686
G1 X115.164 Y71.37 E.28123
G1 X114.628 Y71.37 E.01686
G1 X121.48 Y78.222 E.30507
G1 X121.48 Y78.757 E.01686
G1 X114.093 Y71.37 E.32892
G1 X113.557 Y71.37 E.01686
G1 X121.48 Y79.293 E.35276
G1 X121.48 Y79.828 E.01686
G1 X113.022 Y71.37 E.3766
G1 X112.486 Y71.37 E.01686
G1 X121.48 Y80.364 E.40044
G1 X121.48 Y80.899 E.01686
G1 X111.951 Y71.37 E.42428
G1 X111.415 Y71.37 E.01686
G1 X121.48 Y81.435 E.44812
G1 X121.48 Y81.97 E.01686
G1 X110.88 Y71.37 E.47196
G1 X110.345 Y71.37 E.01686
G1 X121.48 Y82.505 E.49581
G1 X121.48 Y83.041 E.01686
G1 X109.809 Y71.37 E.51965
G1 X109.274 Y71.37 E.01686
G1 X121.48 Y83.576 E.54349
G1 X121.48 Y84.112 E.01686
G1 X108.738 Y71.37 E.56733
G1 X108.203 Y71.37 E.01686
G1 X121.48 Y84.647 E.59117
G1 X121.48 Y85.183 E.01686
G1 X107.667 Y71.37 E.61501
G1 X107.132 Y71.37 E.01686
G1 X121.48 Y85.718 E.63885
G1 X121.48 Y86.254 E.01686
G1 X106.596 Y71.37 E.6627
G1 X106.061 Y71.37 E.01686
G1 X121.48 Y86.789 E.68654
G1 X121.48 Y87.325 E.01686
G1 X105.525 Y71.37 E.71038
G1 X104.99 Y71.37 E.01686
G1 X121.48 Y87.86 E.73422
G1 X121.48 Y88.396 E.01686
G1 X104.454 Y71.37 E.75806
G1 X103.919 Y71.37 E.01686
G1 X121.48 Y88.931 E.7819
G1 X121.48 Y89.467 E.01686
G1 X103.383 Y71.37 E.80575
G1 X102.848 Y71.37 E.01686
G1 X121.48 Y90.002 E.82959
G1 X121.48 Y90.538 E.01686
G1 X102.313 Y71.37 E.85343
G1 X101.777 Y71.37 E.01686
G1 X121.48 Y91.073 E.87727
G1 X121.48 Y91.608 E.01686
G1 X101.242 Y71.37 E.90111
G1 X100.706 Y71.37 E.01686
G1 X121.48 Y92.144 E.92495
G1 X121.48 Y92.679 E.01686
G1 X100.171 Y71.37 E.94879
G1 X99.635 Y71.37 E.01686
G1 X121.48 Y93.215 E.97264
G1 X121.48 Y93.75 E.01686
G1 X99.1 Y71.37 E.99648
G1 X98.564 Y71.37 E.01686
M73 P2 R69
G1 X121.48 Y94.286 E1.02032
G1 X121.48 Y94.821 E.01686
G1 X98.029 Y71.37 E1.04416
G1 X97.493 Y71.37 E.01686
G1 X121.48 Y95.357 E1.068
G1 X121.48 Y95.892 E.01686
G1 X96.958 Y71.37 E1.09184
G1 X96.422 Y71.37 E.01686
G1 X121.48 Y96.428 E1.11568
G1 X121.48 Y96.963 E.01686
G1 X95.887 Y71.37 E1.13953
G1 X95.351 Y71.37 E.01686
G1 X121.48 Y97.499 E1.16337
G1 X121.48 Y98.034 E.01686
G1 X94.816 Y71.37 E1.18721
G1 X94.28 Y71.37 E.01686
G1 X121.48 Y98.57 E1.21105
G1 X121.48 Y99.105 E.01686
G1 X93.745 Y71.37 E1.23489
G1 X93.21 Y71.37 E.01686
G1 X121.48 Y99.64 E1.25873
G1 X121.48 Y100.176 E.01686
G1 X92.674 Y71.37 E1.28257
G1 X92.139 Y71.37 E.01686
M73 P2 R68
G1 X121.48 Y100.711 E1.30642
G1 X121.48 Y101.247 E.01686
G1 X91.603 Y71.37 E1.33026
G1 X91.068 Y71.37 E.01686
G1 X121.48 Y101.782 E1.3541
G1 X121.48 Y102.318 E.01686
G1 X90.532 Y71.37 E1.37794
G1 X89.997 Y71.37 E.01686
G1 X121.48 Y102.853 E1.40178
G1 X121.48 Y103.389 E.01686
G1 X89.461 Y71.37 E1.42562
G1 X88.926 Y71.37 E.01686
G1 X121.48 Y103.924 E1.44947
G1 X121.48 Y104.46 E.01686
G1 X88.39 Y71.37 E1.47331
G1 X87.855 Y71.37 E.01686
G1 X121.48 Y104.995 E1.49715
G1 X121.48 Y105.531 E.01686
M73 P3 R68
G1 X87.319 Y71.37 E1.52099
G1 X86.784 Y71.37 E.01686
G1 X121.48 Y106.066 E1.54483
G1 X121.48 Y106.602 E.01686
G1 X86.248 Y71.37 E1.56867
G1 X85.713 Y71.37 E.01686
G1 X121.48 Y107.137 E1.59251
G1 X121.48 Y107.673 E.01686
G1 X85.177 Y71.37 E1.61636
G1 X84.642 Y71.37 E.01686
G1 X121.48 Y108.208 E1.6402
G1 X121.48 Y108.63 E.01329
G1 X121.367 Y108.63 E.00357
G1 X84.107 Y71.37 E1.65899
G1 X83.571 Y71.37 E.01686
G1 X120.831 Y108.63 E1.65899
G1 X120.296 Y108.63 E.01686
G1 X83.036 Y71.37 E1.65899
G1 X82.5 Y71.37 E.01686
G1 X119.76 Y108.63 E1.65899
G1 X119.225 Y108.63 E.01686
G1 X81.965 Y71.37 E1.65899
G1 X81.429 Y71.37 E.01686
G1 X118.689 Y108.63 E1.65899
G1 X118.154 Y108.63 E.01686
G1 X80.894 Y71.37 E1.65899
G1 X80.358 Y71.37 E.01686
G1 X117.619 Y108.63 E1.65899
G1 X117.083 Y108.63 E.01686
G1 X79.823 Y71.37 E1.65899
G1 X79.287 Y71.37 E.01686
M73 P3 R67
G1 X116.548 Y108.63 E1.65899
G1 X116.012 Y108.63 E.01686
M73 P4 R67
G1 X78.752 Y71.37 E1.65899
G1 X78.216 Y71.37 E.01686
G1 X115.477 Y108.63 E1.65899
G1 X114.941 Y108.63 E.01686
G1 X77.681 Y71.37 E1.65899
G1 X77.145 Y71.37 E.01686
G1 X114.406 Y108.63 E1.65899
G1 X113.87 Y108.63 E.01686
G1 X76.61 Y71.37 E1.65899
G1 X76.075 Y71.37 E.01686
G1 X113.335 Y108.63 E1.65899
G1 X112.799 Y108.63 E.01686
G1 X75.539 Y71.37 E1.65899
G1 X75.004 Y71.37 E.01686
G1 X112.264 Y108.63 E1.65899
G1 X111.728 Y108.63 E.01686
G1 X74.468 Y71.37 E1.65899
G1 X73.933 Y71.37 E.01686
G1 X111.193 Y108.63 E1.65899
G1 X110.657 Y108.63 E.01686
G1 X73.397 Y71.37 E1.65899
G1 X72.862 Y71.37 E.01686
G1 X110.122 Y108.63 E1.65899
G1 X109.586 Y108.63 E.01686
G1 X72.326 Y71.37 E1.65899
G1 X71.791 Y71.37 E.01686
G1 X109.051 Y108.63 E1.65899
G1 X108.516 Y108.63 E.01686
G1 X71.255 Y71.37 E1.65899
G1 X70.72 Y71.37 E.01686
G1 X107.98 Y108.63 E1.65899
G1 X107.445 Y108.63 E.01686
M73 P5 R67
G1 X70.184 Y71.37 E1.65899
G1 X69.649 Y71.37 E.01686
G1 X106.909 Y108.63 E1.65899
G1 X106.374 Y108.63 E.01686
G1 X69.113 Y71.37 E1.65899
G1 X68.578 Y71.37 E.01686
G1 X105.838 Y108.63 E1.65899
G1 X105.303 Y108.63 E.01686
G1 X68.042 Y71.37 E1.65899
G1 X67.507 Y71.37 E.01686
G1 X104.767 Y108.63 E1.65899
M73 P5 R66
G1 X104.232 Y108.63 E.01686
G1 X66.972 Y71.37 E1.65899
G1 X66.436 Y71.37 E.01686
G1 X103.696 Y108.63 E1.65899
G1 X103.161 Y108.63 E.01686
G1 X65.901 Y71.37 E1.65899
G1 X65.365 Y71.37 E.01686
G1 X102.625 Y108.63 E1.65899
G1 X102.09 Y108.63 E.01686
G1 X64.83 Y71.37 E1.65899
G1 X64.294 Y71.37 E.01686
G1 X101.554 Y108.63 E1.65899
G1 X101.019 Y108.63 E.01686
G1 X63.759 Y71.37 E1.65899
G1 X63.223 Y71.37 E.01686
G1 X100.483 Y108.63 E1.65899
G1 X99.948 Y108.63 E.01686
G1 X62.688 Y71.37 E1.65899
G1 X62.152 Y71.37 E.01686
G1 X99.413 Y108.63 E1.65899
G1 X98.877 Y108.63 E.01686
M73 P6 R66
G1 X61.617 Y71.37 E1.65899
G1 X61.081 Y71.37 E.01686
G1 X98.342 Y108.63 E1.65899
G1 X97.806 Y108.63 E.01686
G1 X60.546 Y71.37 E1.65899
G1 X60.01 Y71.37 E.01686
G1 X97.271 Y108.63 E1.65899
G1 X96.735 Y108.63 E.01686
G1 X59.475 Y71.37 E1.65899
G1 X58.939 Y71.37 E.01686
G1 X96.2 Y108.63 E1.65899
G1 X95.664 Y108.63 E.01686
G1 X58.404 Y71.37 E1.65899
G1 X57.869 Y71.37 E.01686
G1 X95.129 Y108.63 E1.65899
G1 X94.593 Y108.63 E.01686
G1 X57.333 Y71.37 E1.65899
G1 X57.22 Y71.37 E.00356
G1 X57.22 Y71.792 E.01329
G1 X94.058 Y108.63 E1.64019
G1 X93.522 Y108.63 E.01686
G1 X57.22 Y72.328 E1.61635
G1 X57.22 Y72.863 E.01686
G1 X92.987 Y108.63 E1.59251
G1 X92.451 Y108.63 E.01686
M73 P6 R65
G1 X57.22 Y73.399 E1.56867
G1 X57.22 Y73.934 E.01686
G1 X91.916 Y108.63 E1.54483
G1 X91.381 Y108.63 E.01686
G1 X57.22 Y74.469 E1.52098
G1 X57.22 Y75.005 E.01686
G1 X90.845 Y108.63 E1.49714
G1 X90.31 Y108.63 E.01686
M73 P7 R65
G1 X57.22 Y75.54 E1.4733
G1 X57.22 Y76.076 E.01686
G1 X89.774 Y108.63 E1.44946
G1 X89.239 Y108.63 E.01686
G1 X57.22 Y76.611 E1.42562
G1 X57.22 Y77.147 E.01686
G1 X88.703 Y108.63 E1.40178
G1 X88.168 Y108.63 E.01686
G1 X57.22 Y77.682 E1.37793
G1 X57.22 Y78.218 E.01686
G1 X87.632 Y108.63 E1.35409
G1 X87.097 Y108.63 E.01686
G1 X57.22 Y78.753 E1.33025
G1 X57.22 Y79.289 E.01686
G1 X86.561 Y108.63 E1.30641
G1 X86.026 Y108.63 E.01686
G1 X57.22 Y79.824 E1.28257
G1 X57.22 Y80.36 E.01686
G1 X85.49 Y108.63 E1.25873
G1 X84.955 Y108.63 E.01686
G1 X57.22 Y80.895 E1.23489
G1 X57.22 Y81.431 E.01686
G1 X84.419 Y108.63 E1.21104
G1 X83.884 Y108.63 E.01686
G1 X57.22 Y81.966 E1.1872
G1 X57.22 Y82.502 E.01686
G1 X83.348 Y108.63 E1.16336
G1 X82.813 Y108.63 E.01686
G1 X57.22 Y83.037 E1.13952
G1 X57.22 Y83.572 E.01686
G1 X82.278 Y108.63 E1.11568
G1 X81.742 Y108.63 E.01686
G1 X57.22 Y84.108 E1.09184
G1 X57.22 Y84.643 E.01686
G1 X81.207 Y108.63 E1.068
G1 X80.671 Y108.63 E.01686
G1 X57.22 Y85.179 E1.04415
G1 X57.22 Y85.714 E.01686
G1 X80.136 Y108.63 E1.02031
G1 X79.6 Y108.63 E.01686
G1 X57.22 Y86.25 E.99647
G1 X57.22 Y86.785 E.01686
G1 X79.065 Y108.63 E.97263
G1 X78.529 Y108.63 E.01686
M73 P8 R65
G1 X57.22 Y87.321 E.94879
G1 X57.22 Y87.856 E.01686
G1 X77.994 Y108.63 E.92495
G1 X77.458 Y108.63 E.01686
G1 X57.22 Y88.392 E.90111
G1 X57.22 Y88.927 E.01686
G1 X76.923 Y108.63 E.87726
G1 X76.387 Y108.63 E.01686
M73 P8 R64
G1 X57.22 Y89.463 E.85342
G1 X57.22 Y89.998 E.01686
G1 X75.852 Y108.63 E.82958
G1 X75.316 Y108.63 E.01686
G1 X57.22 Y90.534 E.80574
G1 X57.22 Y91.069 E.01686
G1 X74.781 Y108.63 E.7819
G1 X74.245 Y108.63 E.01686
G1 X57.22 Y91.605 E.75806
G1 X57.22 Y92.14 E.01686
G1 X73.71 Y108.63 E.73421
G1 X73.175 Y108.63 E.01686
G1 X57.22 Y92.675 E.71037
G1 X57.22 Y93.211 E.01686
G1 X72.639 Y108.63 E.68653
G1 X72.104 Y108.63 E.01686
G1 X57.22 Y93.746 E.66269
G1 X57.22 Y94.282 E.01686
G1 X71.568 Y108.63 E.63885
G1 X71.033 Y108.63 E.01686
G1 X57.22 Y94.817 E.61501
G1 X57.22 Y95.353 E.01686
G1 X70.497 Y108.63 E.59117
G1 X69.962 Y108.63 E.01686
G1 X57.22 Y95.888 E.56732
G1 X57.22 Y96.424 E.01686
G1 X69.426 Y108.63 E.54348
G1 X68.891 Y108.63 E.01686
G1 X57.22 Y96.959 E.51964
G1 X57.22 Y97.495 E.01686
G1 X68.355 Y108.63 E.4958
G1 X67.82 Y108.63 E.01686
G1 X57.22 Y98.03 E.47196
G1 X57.22 Y98.566 E.01686
G1 X67.284 Y108.63 E.44812
G1 X66.749 Y108.63 E.01686
G1 X57.22 Y99.101 E.42428
G1 X57.22 Y99.637 E.01686
G1 X66.213 Y108.63 E.40043
G1 X65.678 Y108.63 E.01686
G1 X57.22 Y100.172 E.37659
G1 X57.22 Y100.707 E.01686
G1 X65.143 Y108.63 E.35275
G1 X64.607 Y108.63 E.01686
G1 X57.22 Y101.243 E.32891
G1 X57.22 Y101.778 E.01686
G1 X64.072 Y108.63 E.30507
G1 X63.536 Y108.63 E.01686
G1 X57.22 Y102.314 E.28123
G1 X57.22 Y102.849 E.01686
G1 X63.001 Y108.63 E.25739
G1 X62.465 Y108.63 E.01686
G1 X57.22 Y103.385 E.23354
G1 X57.22 Y103.92 E.01686
G1 X61.93 Y108.63 E.2097
G1 X61.394 Y108.63 E.01686
G1 X57.22 Y104.456 E.18586
G1 X57.22 Y104.991 E.01686
G1 X60.859 Y108.63 E.16202
G1 X60.323 Y108.63 E.01686
G1 X57.22 Y105.527 E.13818
G1 X57.22 Y106.062 E.01686
G1 X59.788 Y108.63 E.11434
G1 X59.252 Y108.63 E.01686
G1 X57.22 Y106.598 E.09049
G1 X57.22 Y107.133 E.01686
G1 X58.717 Y108.63 E.06665
G1 X58.181 Y108.63 E.01686
G1 X57.22 Y107.669 E.04281
G1 X57.22 Y108.204 E.01686
G1 X57.816 Y108.8 E.02653
M204 P1000
; stop printing object KrabickaSpodek.stl id:0 copy 0
;LAYER_CHANGE
;Z:0.4
;HEIGHT:0.2
;BEFORE_LAYER_CHANGE
G92 E0.0
;0.4


G1 E-2.24 F2400
;WIPE_START
G1 F7200
G1 X57.22 Y108.204 E-.2668
G1 X57.22 Y107.669 E-.16957
G1 X58.181 Y108.63 E-.43061
G1 X58.324 Y108.63 E-.04503
;WIPE_END
G1 E-.048 F2400
G1 Z.4 F720
;AFTER_LAYER_CHANGE
;0.4
M104 S250 ; set temperature
M140 S90 ; set bed temperature
G1 Z.6
G1 X58.324 Y112.077 F9000
G1 Z.4 F720
G1 E3.2 F1500
;TYPE:Skirt/Brim
;WIDTH:0.42
G1 F2400
G1 X56.15 Y112.077 E.06815
G1 X54.843 Y111.685 E.04278
G1 X53.967 Y110.64 E.04278
G1 X53.773 Y109.7 E.03008
G1 X53.773 Y70.3 E1.23536
G1 X54.165 Y68.993 E.04278
G1 X55.21 Y68.117 E.04278
G1 X56.15 Y67.923 E.03008
G1 X122.55 Y67.923 E2.08193
G1 X123.857 Y68.315 E.04278
G1 X124.733 Y69.36 E.04278
G1 X124.927 Y70.3 E.03008
G1 X124.927 Y109.7 E1.23536
G1 X124.535 Y111.007 E.04278
G1 X123.49 Y111.883 E.04278
G1 X122.55 Y112.077 E.03008
G1 X58.384 Y112.077 E2.01189
; printing object KrabickaSpodek.stl id:0 copy 0
G1 E-2.24
;WIPE_START
G1 F7200
G1 X56.15 Y112.077 E-.70731
G1 X55.531 Y111.892 E-.20469
;WIPE_END
G1 E-.048 F2400
G1 Z.6 F720
G1 X56.782 Y108.668 F9000
G1 Z.4 F720
G1 E3.2 F1500
M204 P800
;TYPE:Perimeter
;WIDTH:0.45
G1 F2400
G1 X56.782 Y70.932 E1.27731
G1 X121.918 Y70.932 E2.20477
G1 X121.918 Y109.068 E1.29085
M73 P9 R64
G1 X56.782 Y109.068 E2.20477
G1 X56.782 Y108.728 E.01151
M204 P1000
G1 X56.375 Y109.475 F9000
M204 P800
;TYPE:External perimeter
G1 F1800
G1 X56.375 Y70.525 E1.31841
G1 X122.325 Y70.525 E2.23233
G1 X122.325 Y109.475 E1.31841
G1 X56.435 Y109.475 E2.2303
M204 P1000
G1 X56.511 Y109.099 F9000
G1 E-2.24 F2400
;WIPE_START
G1 F7200
G1 X56.431 Y106.595 E-.912
;WIPE_END
G1 E-.048 F2400
G1 Z.6 F720
G1 X121.796 Y108.12 F9000
G1 Z.4 F720
G1 E3.2 F1500
;TYPE:Solid infill
;WIDTH:0.45155
G1 F4800
G1 X121.153 Y108.763 E.0309
G1 X120.575 Y108.763 E.01964
G1 X121.613 Y107.725 E.04986
G1 X121.613 Y107.147 E.01964
G1 X119.997 Y108.763 E.07763
G1 X119.419 Y108.763 E.01964
G1 X121.613 Y106.569 E.1054
G1 X121.613 Y105.991 E.01964
G1 X118.841 Y108.763 E.13317
G1 X118.263 Y108.763 E.01964
G1 X121.613 Y105.413 E.16094
G1 X121.613 Y104.835 E.01964
G1 X117.685 Y108.763 E.18871
G1 X117.108 Y108.763 E.01964
G1 X121.613 Y104.258 E.21648
G1 X121.613 Y103.68 E.01964
G1 X116.53 Y108.763 E.24424
G1 X115.952 Y108.763 E.01964
G1 X121.613 Y103.102 E.27201
G1 X121.613 Y102.524 E.01964
G1 X115.374 Y108.763 E.29978
G1 X114.796 Y108.763 E.01964
G1 X121.613 Y101.946 E.32755
G1 X121.613 Y101.368 E.01964
G1 X114.218 Y108.763 E.35532
G1 X113.64 Y108.763 E.01964
G1 X121.613 Y100.79 E.38309
G1 X121.613 Y100.212 E.01964
G1 X113.062 Y108.763 E.41086
G1 X112.484 Y108.763 E.01964
G1 X121.613 Y99.634 E.43863
