; generated by PrusaSlicer 2.4.0+win64 on 2022-01-02 at 17:08:47 UTC


;
;

;
;
; 

; external perimeters extrusion width = 0.45mm
; perimeters extrusion width = 0.45mm
; infill extrusion width = 0.45mm
; solid infill extrusion width = 0.45mm
; top infill extrusion width = 0.40mm
; first layer extrusion width = 0.42mm

M73 P0 R13
M201 X2500 Y2500 Z400 E5000 ; sets maximum accelerations, mm/sec^2
M203 X180 Y180 Z12 E80 ; sets maximum feedrates, mm/sec
M204 P1250 R1250 T2500 ; sets acceleration (P, T) and retract acceleration (R), mm/sec^2
M205 X8.00 Y8.00 Z2.00 E10.00 ; sets the jerk limits, mm/sec
M205 S0 T0 ; sets the minimum extruding and travel feed rate, mm/sec
M107
;TYPE:Custom
G90 ; use absolute coordinates
M83 ; extruder relative mode
M104 S170 ; set extruder temp for bed leveling
M140 S85 ; set bed temp
M109 R170 ; wait for bed leveling temp
M190 S85 ; wait for bed temp
M204 T1250 ; set travel acceleration
G28 ; home all without mesh bed level
G29 ; mesh bed leveling 
M204 T2500 ; restore travel acceleration
M104 S240 ; set extruder temp
G92 E0
G1 Y-2 X179 F2400
G1 Z3 F720
M109 S240 ; wait for extruder temp

; intro line
M73 P0 R12
G1 X170 F1000
G1 Z0.2 F720
G1 X110 E8 F900
G1 X40 E10 F700
G92 E0

M221 S95 ; set flow
G21 ; set units to millimeters
G90 ; use absolute coordinates
M83 ; use relative distances for extrusion
M900 K0.2 ; Filament gcode
M107
;LAYER_CHANGE
;Z:0.2
;HEIGHT:0.2
;BEFORE_LAYER_CHANGE
G92 E0.0
;0.2


M73 P1 R12
G1 E-3.2 F2400
G1 Z.2 F720
;AFTER_LAYER_CHANGE
;0.2
G1 Z.4
G1 X68.915 Y56.268 F9000
M73 P2 R12
G1 Z.2 F720
G1 E3.2 F1500
M204 P800
;TYPE:Skirt/Brim
;WIDTH:0.42
G1 F1200
G1 X69.96 Y55.392 E.04278
G1 X70.9 Y55.198 E.03008
G1 X109.1 Y55.198 E1.19773
G1 X110.407 Y55.59 E.04278
G1 X111.283 Y56.635 E.04278
G1 X111.477 Y57.575 E.03008
G1 X111.477 Y122.425 E2.03333
G1 X111.085 Y123.732 E.04278
G1 X110.04 Y124.608 E.04278
G1 X109.1 Y124.802 E.03008
G1 X70.9 Y124.802 E1.19773
G1 X69.593 Y124.41 E.04278
M73 P3 R12
G1 X68.717 Y123.365 E.04278
G1 X68.523 Y122.425 E.03008
G1 X68.523 Y57.575 E2.03333
G1 X68.897 Y56.325 E.0409
M204 P1000
; printing object KrabickaVrsek.stl id:0 copy 0
G1 E-2.24 F2400
;WIPE_START
G1 F7200
G1 X69.96 Y55.392 E-.44806
G1 X70.9 Y55.198 E-.30384
G1 X71.406 Y55.198 E-.1601
;WIPE_END
G1 E-.048 F2400
G1 Z.4 F720
G1 X94.09 Y78.815 F9000
G1 Z.2 F720
G1 E3.2 F1500
M204 P800
;TYPE:External perimeter
G1 F1200
G1 X107.002 Y78.816 E.40485
G1 X107.514 Y78.826 E.01604
G1 X108.039 Y78.884 E.01657
G1 X108.71 Y79.064 E.02178
G1 X108.71 Y102.386 E.73126
G1 X108.039 Y102.566 E.02178
G1 X107.514 Y102.624 E.01657
G1 X107.002 Y102.634 E.01604
G1 X94.09 Y102.635 E.40485
G1 X94.09 Y78.875 E.74498
M204 P1000
G1 X94.024 Y78.42 F9000
M73 P4 R12
G1 E-2.24 F2400
;WIPE_START
G1 F7200
G1 X96.97 Y78.862 E-.912
;WIPE_END
G1 E-.048 F2400
G1 Z.4 F720
G1 X77.308 Y93.343 F9000
G1 Z.2 F720
G1 E3.2 F1500
M204 P800
;TYPE:Perimeter
G1 F1200
G1 X77.434 Y93.553 E.00767
G1 X77.626 Y94.125 E.01893
G1 X77.692 Y94.725 E.01893
G1 X77.626 Y95.325 E.01893
G1 X77.434 Y95.897 E.01893
G1 X77.122 Y96.414 E.01893
G1 X76.707 Y96.853 E.01893
G1 X76.208 Y97.192 E.01893
G1 X75.647 Y97.415 E.01893
G1 X75.051 Y97.513 E.01893
G1 X74.448 Y97.48 E.01893
G1 X73.924 Y97.334 E.01708
G1 X73.338 Y97.04 E.02054
G1 X72.873 Y96.645 E.01913
G1 X72.508 Y96.164 E.01893
G1 X72.254 Y95.616 E.01893
G1 X72.125 Y95.027 E.01893
G1 X72.125 Y94.423 E.01893
G1 X72.254 Y93.834 E.01893
G1 X72.508 Y93.286 E.01893
G1 X72.873 Y92.805 E.01893
G1 X73.333 Y92.414 E.01893
G1 X73.867 Y92.132 E.01893
G1 X74.448 Y91.97 E.01893
G1 X74.992 Y91.941 E.01708
G1 X75.641 Y92.033 E.02054
G1 X76.208 Y92.258 E.01913
G1 X76.707 Y92.597 E.01893
G1 X77.122 Y93.036 E.01893
G1 X77.277 Y93.292 E.00937
M204 P1000
G1 X76.821 Y93.265 F9000
M204 P800
;TYPE:External perimeter
G1 F1200
G1 X77.089 Y93.712 E.01636
G1 X77.256 Y94.206 E.01636
G1 X77.312 Y94.725 E.01636
G1 X77.256 Y95.244 E.01636
G1 X77.089 Y95.738 E.01636
G1 X76.821 Y96.185 E.01636
G1 X76.462 Y96.564 E.01636
G1 X76.03 Y96.856 E.01636
G1 X75.545 Y97.049 E.01636
G1 X75.031 Y97.134 E.01636
G1 X74.51 Y97.106 E.01636
G1 X74.06 Y96.981 E.01463
G1 X73.548 Y96.723 E.01797
G1 X73.149 Y96.384 E.01643
G1 X72.833 Y95.969 E.01636
G1 X72.614 Y95.495 E.01636
G1 X72.502 Y94.986 E.01636
G1 X72.502 Y94.464 E.01636
G1 X72.614 Y93.955 E.01636
G1 X72.833 Y93.481 E.01636
G1 X73.149 Y93.066 E.01636
G1 X73.546 Y92.728 E.01636
G1 X74.007 Y92.484 E.01636
G1 X74.51 Y92.344 E.01636
G1 X74.976 Y92.319 E.01463
G1 X75.543 Y92.4 E.01797
G1 X76.03 Y92.594 E.01643
G1 X76.462 Y92.886 E.01636
G1 X76.779 Y93.222 E.01448
M204 P1000
G1 X77.217 Y93.215 F9000
G1 E-2.24 F2400
;WIPE_START
G1 F7200
G1 X77.089 Y93.712 E-.18379
G1 X77.256 Y94.206 E-.16519
G1 X77.312 Y94.725 E-.16519
G1 X77.256 Y95.244 E-.16519
G1 X77.089 Y95.738 E-.16519
G1 X76.98 Y95.92 E-.06744
;WIPE_END
G1 E-.048 F2400
G1 Z.4 F720
G1 X108.313 Y76.533 F9000
G1 Z.2 F720
G1 E3.2 F1500
M204 P800
;TYPE:Perimeter
G1 F1200
G1 X108.321 Y77.554 E.03199
G1 X108.363 Y78.104 E.0173
G1 X108.456 Y78.605 E.016
G1 X108.109 Y78.513 E.01126
G1 X107.538 Y78.449 E.01799
G1 X107.006 Y78.439 E.0167
G1 X93.713 Y78.438 E.41679
G1 X93.713 Y103.012 E.77051
G1 X107.006 Y103.011 E.41679
G1 X107.538 Y103.001 E.0167
G1 X108.109 Y102.937 E.01799
G1 X108.445 Y102.847 E.01091
G1 X108.356 Y103.403 E.01763
G1 X108.32 Y103.944 E.01703
G1 X108.313 Y104.463 E.01626
G1 X108.313 Y121.638 E.53851
G1 X71.687 Y121.638 E1.14838
G1 X71.687 Y58.362 E1.98397
M73 P5 R12
G1 X108.313 Y58.362 E1.14838
G1 X108.313 Y76.473 E.56787
M204 P1000
G1 E-2.24 F2400
;WIPE_START
G1 F7200
G1 X108.321 Y77.554 E-.34209
G1 X108.363 Y78.104 E-.17476
G1 X108.456 Y78.605 E-.16155
G1 X108.109 Y78.513 E-.1137
G1 X107.732 Y78.471 E-.1199
;WIPE_END
G1 E-.048 F2400
G1 Z.4 F720
G1 X108.69 Y57.985 F9000
G1 Z.2 F720
G1 E3.2 F1500
M204 P800
;TYPE:External perimeter
G1 F1200
M73 P6 R12
G1 X108.698 Y77.538 E.61306
G1 X108.737 Y78.055 E.01627
G1 X108.831 Y78.559 E.01606
G1 X108.89 Y79.038 E.01516
G1 X108.89 Y102.454 E.73419
G1 X108.731 Y103.445 E.03146
G1 X108.697 Y103.959 E.01616
G1 X108.69 Y104.465 E.01586
G1 X108.69 Y122.015 E.55026
G1 X71.31 Y122.015 E1.17202
G1 X71.31 Y57.985 E2.00762
G1 X108.63 Y57.985 E1.17014
M204 P1000
M73 P7 R12
G1 X108.62 Y58.379 F9000
G1 E-2.24 F2400
;WIPE_START
G1 F7200
G1 X108.64 Y60.865 E-.912
;WIPE_END
G1 E-.048 F2400
G1 Z.4 F720
G1 X106.111 Y58.66 F9000
G1 Z.2 F720
G1 E3.2 F1500
M204 P800
;TYPE:Internal infill
G1 F1200
G1 X103.611 Y58.66 E.07839
G1 X103.86 Y59.586 E.03007
G1 X102.586 Y60.86 E.0565
G1 X101.526 Y60.577 E.03439
G1 X100.252 Y61.851 E.0565
G1 X100.536 Y62.91 E.03439
G1 X99.262 Y64.184 E.0565
G1 X98.202 Y63.9 E.03439
G1 X96.928 Y65.174 E.0565
G1 X97.212 Y66.234 E.03439
G1 X95.938 Y67.508 E.0565
G1 X94.879 Y67.224 E.03439
G1 X93.604 Y68.498 E.0565
G1 X93.888 Y69.558 E.03439
G1 X92.614 Y70.832 E.0565
G1 X91.555 Y70.548 E.03439
G1 X90.281 Y71.822 E.0565
G1 X90.565 Y72.881 E.03439
G1 X89.29 Y74.156 E.0565
G1 X88.231 Y73.872 E.03439
G1 X86.957 Y75.146 E.0565
G1 X87.241 Y76.205 E.03439
G1 X85.967 Y77.479 E.0565
G1 X84.907 Y77.195 E.03439
G1 X83.633 Y78.47 E.0565
G1 X83.917 Y79.529 E.03439
G1 X82.643 Y80.803 E.0565
G1 X81.583 Y80.519 E.03439
G1 X80.309 Y81.793 E.0565
G1 X80.593 Y82.853 E.03439
G1 X79.319 Y84.127 E.0565
G1 X78.26 Y83.843 E.03439
G1 X76.986 Y85.117 E.0565
G1 X77.269 Y86.177 E.03439
G1 X75.995 Y87.451 E.0565
G1 X74.936 Y87.167 E.03439
G1 X73.662 Y88.441 E.0565
G1 X73.946 Y89.5 E.03439
G1 X72.672 Y90.775 E.0565
G1 X71.985 Y90.591 E.02229
G1 X71.985 Y93.222 E.08251
G1 X72.121 Y93.244 E.00431
G1 X72.307 Y93.058 E.00825
G1 X72.656 Y92.599 E.01809
G1 X73.165 Y92.166 E.02096
G1 X73.243 Y92.122 E.00282
G1 X72.959 Y91.062 E.03439
G1 X74.234 Y89.788 E.0565
G1 X75.293 Y90.072 E.03439
G1 X76.567 Y88.798 E.0565
G1 X76.283 Y87.739 E.03439
G1 X77.557 Y86.464 E.0565
G1 X78.617 Y86.748 E.03439
G1 X79.891 Y85.474 E.0565
G1 X79.607 Y84.415 E.03439
G1 X80.881 Y83.141 E.0565
G1 X81.94 Y83.425 E.03439
G1 X83.215 Y82.15 E.0565
G1 X82.931 Y81.091 E.03439
G1 X84.205 Y79.817 E.0565
G1 X85.264 Y80.101 E.03439
G1 X86.538 Y78.827 E.0565
G1 X86.255 Y77.767 E.03439
G1 X87.529 Y76.493 E.0565
G1 X88.588 Y76.777 E.03439
G1 X89.862 Y75.503 E.0565
G1 X89.578 Y74.443 E.03439
G1 X90.852 Y73.169 E.0565
G1 X91.912 Y73.453 E.03439
M73 P8 R12
G1 X93.186 Y72.179 E.0565
M73 P8 R11
G1 X92.902 Y71.12 E.03439
G1 X94.176 Y69.846 E.0565
G1 X95.236 Y70.129 E.03439
G1 X96.51 Y68.855 E.0565
G1 X96.226 Y67.796 E.03439
G1 X97.5 Y66.522 E.0565
G1 X98.559 Y66.806 E.03439
G1 X99.834 Y65.532 E.0565
G1 X99.55 Y64.472 E.03439
G1 X100.824 Y63.198 E.0565
G1 X101.883 Y63.482 E.03439
G1 X103.157 Y62.208 E.0565
G1 X102.873 Y61.148 E.03439
G1 X104.148 Y59.874 E.0565
G1 X105.207 Y60.158 E.03439
G1 X106.481 Y58.884 E.0565
G1 X106.421 Y58.66 E.00727
G1 X108.015 Y58.66 E.04998
G1 X108.015 Y59.269 E.0191
G1 X107.828 Y59.456 E.00828
G1 X106.769 Y59.172 E.03439
G1 X105.495 Y60.446 E.0565
G1 X105.779 Y61.505 E.03439
G1 X104.505 Y62.779 E.0565
G1 X103.445 Y62.496 E.03439
G1 X102.171 Y63.77 E.0565
G1 X102.455 Y64.829 E.03439
G1 X101.181 Y66.103 E.0565
G1 X100.121 Y65.819 E.03439
G1 X98.847 Y67.093 E.0565
G1 X99.131 Y68.153 E.03439
G1 X97.857 Y69.427 E.0565
G1 X96.798 Y69.143 E.03439
G1 X95.523 Y70.417 E.0565
G1 X95.807 Y71.477 E.03439
G1 X94.533 Y72.751 E.0565
G1 X93.474 Y72.467 E.03439
G1 X92.2 Y73.741 E.0565
G1 X92.484 Y74.8 E.03439
G1 X91.209 Y76.075 E.0565
G1 X90.15 Y75.791 E.03439
G1 X88.876 Y77.065 E.0565
G1 X89.16 Y78.124 E.03439
G1 X87.886 Y79.398 E.0565
G1 X86.826 Y79.114 E.03439
G1 X85.552 Y80.389 E.0565
G1 X85.836 Y81.448 E.03439
G1 X84.562 Y82.722 E.0565
G1 X83.502 Y82.438 E.03439
G1 X82.228 Y83.712 E.0565
G1 X82.512 Y84.772 E.03439
G1 X81.238 Y86.046 E.0565
G1 X80.179 Y85.762 E.03439
G1 X78.905 Y87.036 E.0565
G1 X79.188 Y88.096 E.03439
G1 X77.914 Y89.37 E.0565
G1 X76.855 Y89.086 E.03439
G1 X75.581 Y90.36 E.0565
G1 X75.865 Y91.419 E.03439
G1 X75.563 Y91.721 E.01337
G1 X75.718 Y91.743 E.00491
G1 X76.003 Y91.856 E.00963
G1 X76.152 Y91.707 E.00662
G1 X77.212 Y91.991 E.03439
G1 X78.486 Y90.717 E.0565
G1 X78.202 Y89.658 E.03439
G1 X79.476 Y88.383 E.0565
G1 X80.536 Y88.667 E.03439
G1 X81.81 Y87.393 E.0565
G1 X81.526 Y86.334 E.03439
G1 X82.8 Y85.06 E.0565
G1 X83.859 Y85.344 E.03439
G1 X85.134 Y84.069 E.0565
G1 X84.85 Y83.01 E.03439
G1 X86.124 Y81.736 E.0565
G1 X87.183 Y82.02 E.03439
G1 X88.457 Y80.746 E.0565
G1 X88.174 Y79.686 E.03439
G1 X89.448 Y78.412 E.0565
G1 X90.507 Y78.696 E.03439
G1 X91.781 Y77.422 E.0565
G1 X91.497 Y76.362 E.03439
G1 X92.771 Y75.088 E.0565
G1 X93.831 Y75.372 E.03439
G1 X95.105 Y74.098 E.0565
G1 X94.821 Y73.039 E.03439
G1 X96.095 Y71.765 E.0565
G1 X97.155 Y72.048 E.03439
G1 X98.429 Y70.774 E.0565
G1 X98.145 Y69.715 E.03439
G1 X99.419 Y68.441 E.0565
G1 X100.478 Y68.725 E.03439
G1 X101.753 Y67.45 E.0565
G1 X101.469 Y66.391 E.03439
G1 X102.743 Y65.117 E.0565
G1 X103.802 Y65.401 E.03439
G1 X105.076 Y64.127 E.0565
G1 X104.792 Y63.067 E.03439
G1 X106.067 Y61.793 E.0565
G1 X107.126 Y62.077 E.03439
G1 X108.015 Y61.188 E.03943
G1 X108.015 Y61.764 E.01805
G1 X107.414 Y62.365 E.02666
G1 X107.698 Y63.424 E.03439
G1 X106.424 Y64.698 E.0565
G1 X105.364 Y64.415 E.03439
M73 P9 R11
G1 X104.09 Y65.689 E.0565
G1 X104.374 Y66.748 E.03439
G1 X103.1 Y68.022 E.0565
G1 X102.04 Y67.738 E.03439
G1 X100.766 Y69.012 E.0565
G1 X101.05 Y70.072 E.03439
G1 X99.776 Y71.346 E.0565
G1 X98.717 Y71.062 E.03439
G1 X97.442 Y72.336 E.0565
G1 X97.726 Y73.396 E.03439
G1 X96.452 Y74.67 E.0565
G1 X95.393 Y74.386 E.03439
G1 X94.119 Y75.66 E.0565
G1 X94.403 Y76.719 E.03439
G1 X93.128 Y77.994 E.0565
G1 X92.069 Y77.71 E.03439
G1 X90.795 Y78.984 E.0565
G1 X91.079 Y80.043 E.03439
G1 X89.805 Y81.317 E.0565
G1 X88.745 Y81.033 E.03439
G1 X87.471 Y82.308 E.0565
G1 X87.755 Y83.367 E.03439
G1 X86.481 Y84.641 E.0565
G1 X85.421 Y84.357 E.03439
G1 X84.147 Y85.631 E.0565
G1 X84.431 Y86.691 E.03439
G1 X83.157 Y87.965 E.0565
G1 X82.098 Y87.681 E.03439
G1 X80.824 Y88.955 E.0565
G1 X81.107 Y90.015 E.03439
G1 X79.833 Y91.289 E.0565
G1 X78.774 Y91.005 E.03439
G1 X77.5 Y92.279 E.0565
G1 X77.784 Y93.338 E.03439
G1 X77.702 Y93.42 E.00364
G1 X77.848 Y93.85 E.01422
G1 X78.071 Y93.626 E.00991
G1 X79.131 Y93.91 E.03439
G1 X80.405 Y92.636 E.0565
G1 X80.121 Y91.577 E.03439
G1 X81.395 Y90.302 E.0565
G1 X82.455 Y90.586 E.03439
G1 X83.729 Y89.312 E.0565
G1 X83.445 Y88.253 E.03439
G1 X84.719 Y86.979 E.0565
G1 X85.778 Y87.263 E.03439
G1 X87.053 Y85.988 E.0565
G1 X86.769 Y84.929 E.03439
G1 X88.043 Y83.655 E.0565
G1 X89.102 Y83.939 E.03439
G1 X90.376 Y82.665 E.0565
G1 X90.092 Y81.605 E.03439
G1 X91.367 Y80.331 E.0565
G1 X92.426 Y80.615 E.03439
G1 X93.415 Y79.626 E.04386
G1 X93.415 Y80.202 E.01805
G1 X92.714 Y80.903 E.03109
G1 X92.998 Y81.962 E.03439
G1 X91.724 Y83.236 E.0565
G1 X90.664 Y82.952 E.03439
G1 X89.39 Y84.227 E.0565
G1 X89.674 Y85.286 E.03439
G1 X88.4 Y86.56 E.0565
G1 X87.34 Y86.276 E.03439
G1 X86.066 Y87.55 E.0565
G1 X86.35 Y88.61 E.03439
G1 X85.076 Y89.884 E.0565
G1 X84.017 Y89.6 E.03439
G1 X82.743 Y90.874 E.0565
G1 X83.026 Y91.934 E.03439
G1 X81.752 Y93.208 E.0565
G1 X80.693 Y92.924 E.03439
G1 X79.419 Y94.198 E.0565
G1 X79.703 Y95.257 E.03439
G1 X78.429 Y96.531 E.0565
G1 X77.542 Y96.294 E.02876
G1 X77.361 Y96.596 E.01104
G1 X76.901 Y97.081 E.02096
G1 X76.348 Y97.456 E.02096
G1 X76.104 Y97.554 E.00825
G1 X76.379 Y98.581 E.03335
G1 X75.105 Y99.855 E.0565
G1 X74.045 Y99.571 E.03439
G1 X72.771 Y100.845 E.0565
G1 X73.055 Y101.905 E.03439
G1 X71.985 Y102.975 E.04745
G1 X71.985 Y100.424 E.07998
G1 X72.483 Y100.558 E.01618
G1 X73.757 Y99.284 E.0565
G1 X73.474 Y98.224 E.03439
G1 X74.026 Y97.672 E.02449
G1 X73.816 Y97.613 E.00684
G1 X73.611 Y97.511 E.00717
G1 X73.186 Y97.936 E.01887
G1 X72.126 Y97.652 E.03439
G1 X71.985 Y97.794 E.00627
G1 X71.985 Y96.228 E.0491
G1 X72.193 Y96.194 E.00662
G1 X72.251 Y96.319 E.00432
G1 X72.605 Y96.784 E.01834
M204 P1000
G1 E-2.24 F2400
;WIPE_START
G1 F7200
G1 X72.251 Y96.319 E-.18522
G1 X72.193 Y96.194 E-.04367
G1 X71.985 Y96.228 E-.06688
G1 X71.985 Y97.794 E-.49589
G1 X72.126 Y97.652 E-.06333
G1 X72.3 Y97.699 E-.057
;WIPE_END
G1 E-.048 F2400
G1 Z.4 F720
G1 X72.013 Y95.921 F9000
G1 Z.2 F720
G1 E3.2 F1500
M204 P800
;TYPE:Gap fill
;WIDTH:0.251642
G1 F1200
G1 X71.976 Y95.699 E.00392
M204 P1000
M204 P800
;WIDTH:0.244352
G1 X71.953 Y95.484 E.00362
M204 P1000
M204 P800
;WIDTH:0.197609
G1 X71.93 Y95.269 E.00278
M204 P1000
M204 P800
;WIDTH:0.150866
G1 X71.906 Y95.054 E.00194
M204 P1000
M204 P800
;WIDTH:0.104124
G1 X71.906 Y95.047 E.00003
M204 P1000
M204 P800
;WIDTH:0.103408
G1 X71.906 Y94.403 E.00324
M204 P1000
M204 P800
;WIDTH:0.104124
G1 X71.906 Y94.396 E.00003
M204 P1000
M204 P800
;WIDTH:0.150867
G1 X71.93 Y94.181 E.00194
M204 P1000
M204 P800
;WIDTH:0.197609
G1 X71.953 Y93.966 E.00278
M204 P1000
M204 P800
;WIDTH:0.244352
G1 X71.976 Y93.751 E.00362
M204 P1000
M204 P800
;WIDTH:0.251643
G1 X72.013 Y93.529 E.00392
M204 P1000
G1 E-2.24 F2400
;WIPE_START
G1 F7200
G1 X71.976 Y93.751 E-.0715
;WIPE_END
G1 E-.8885 F2400
G1 Z.4 F720
G1 X71.985 Y86.483 F9000
G1 Z.2 F720
G1 E3.2 F1500
M204 P800
;TYPE:Internal infill
;WIDTH:0.42
G1 F1200
M73 P10 R11
G1 X71.985 Y87.425 E.02954
G1 X72.027 Y87.581 E.00506
G1 X71.985 Y87.623 E.00185
G1 X71.985 Y88.199 E.01805
G1 X72.315 Y87.869 E.01462
G1 X73.374 Y88.153 E.03439
G1 X74.648 Y86.879 E.0565
G1 X74.364 Y85.82 E.03439
G1 X75.638 Y84.545 E.0565
G1 X76.698 Y84.829 E.03439
G1 X77.972 Y83.555 E.0565
G1 X77.688 Y82.496 E.03439
G1 X78.962 Y81.222 E.0565
G1 X80.022 Y81.506 E.03439
G1 X81.296 Y80.231 E.0565
G1 X81.012 Y79.172 E.03439
G1 X82.286 Y77.898 E.0565
G1 X83.345 Y78.182 E.03439
G1 X84.619 Y76.908 E.0565
G1 X84.336 Y75.848 E.03439
G1 X85.61 Y74.574 E.0565
G1 X86.669 Y74.858 E.03439
G1 X87.943 Y73.584 E.0565
G1 X87.659 Y72.524 E.03439
G1 X88.933 Y71.25 E.0565
G1 X89.993 Y71.534 E.03439
G1 X91.267 Y70.26 E.0565
G1 X90.983 Y69.201 E.03439
G1 X92.257 Y67.927 E.0565
G1 X93.317 Y68.21 E.03439
G1 X94.591 Y66.936 E.0565
G1 X94.307 Y65.877 E.03439
G1 X95.581 Y64.603 E.0565
G1 X96.64 Y64.887 E.03439
G1 X97.915 Y63.613 E.0565
G1 X97.631 Y62.553 E.03439
G1 X98.905 Y61.279 E.0565
