; generated by PrusaSlicer 2.4.0+win64 on 2022-01-08 at 18:33:55 UTC


;
;

;
;
; 

; external perimeters extrusion width = 0.45mm
; perimeters extrusion width = 0.45mm
; infill extrusion width = 0.45mm
; solid infill extrusion width = 0.45mm
; top infill extrusion width = 0.40mm
; support material extrusion width = 0.35mm
; first layer extrusion width = 0.42mm

M73 P0 R38
M201 X2500 Y2500 Z400 E5000 ; sets maximum accelerations, mm/sec^2
M203 X180 Y180 Z12 E80 ; sets maximum feedrates, mm/sec
M204 P1250 R1250 T2500 ; sets acceleration (P, T) and retract acceleration (R), mm/sec^2
M205 X8.00 Y8.00 Z2.00 E10.00 ; sets the jerk limits, mm/sec
M205 S0 T0 ; sets the minimum extruding and travel feed rate, mm/sec
M107
;TYPE:Custom
G90 ; use absolute coordinates
M83 ; extruder relative mode
M104 S170 ; set extruder temp for bed leveling
M140 S85 ; set bed temp
M109 R170 ; wait for bed leveling temp
M190 S85 ; wait for bed temp
M204 T1250 ; set travel acceleration
G28 ; home all without mesh bed level
G29 ; mesh bed leveling 
M204 T2500 ; restore travel acceleration
M104 S230 ; set extruder temp
G92 E0
G1 Y-2 X179 F2400
G1 Z3 F720
M109 S230 ; wait for extruder temp

; intro line
G1 X170 F1000
G1 Z0.2 F720
G1 X110 E8 F900
G1 X40 E10 F700
G92 E0

M221 S95 ; set flow
G21 ; set units to millimeters
G90 ; use absolute coordinates
M83 ; use relative distances for extrusion
M900 K0.2 ; Filament gcode
M107
;LAYER_CHANGE
;Z:0.2
;HEIGHT:0.2
;BEFORE_LAYER_CHANGE
G92 E0.0
;0.2


G1 E-3.2 F2400
M73 P0 R37
G1 Z.2 F720
;AFTER_LAYER_CHANGE
;0.2
G1 Z.4
G1 X74.942 Y84.853 F9000
G1 Z.2 F720
G1 E3.2 F1500
M204 P800
;TYPE:Skirt/Brim
;WIDTH:0.42
G1 F1200
G1 X76.232 Y83.903 E.05023
G1 X77.405 Y83.368 E.04042
G1 X78.484 Y83.084 E.03499
G1 X79.768 Y82.974 E.04042
G1 X100.633 Y82.983 E.65419
G1 X101.909 Y83.166 E.04042
G1 X102.97 Y83.511 E.03499
G1 X104.11 Y84.113 E.04042
G1 X104.994 Y84.794 E.03499
G1 X105.866 Y85.744 E.04042
G1 X106.469 Y86.683 E.03499
G1 X106.971 Y87.87 E.04042
G1 X107.224 Y88.957 E.03499
G1 X107.297 Y90.244 E.04042
G1 X107.17 Y91.353 E.03499
G1 X106.807 Y92.59 E.04042
G1 X106.314 Y93.591 E.03499
G1 X105.557 Y94.634 E.04042
G1 X104.756 Y95.412 E.03499
G1 X103.692 Y96.139 E.04042
G1 X102.677 Y96.603 E.03499
G1 X101.43 Y96.931 E.04042
G1 X100.397 Y97.027 E.03254
G1 X79.847 Y97.027 E.64433
G1 X78.484 Y96.916 E.04288
G1 X77.405 Y96.632 E.03499
G1 X76.664 Y96.325 E.02515
G1 X75.963 Y95.934 E.02515
G1 X74.942 Y95.147 E.04042
G1 X74.386 Y94.568 E.02515
G1 X73.73 Y93.666 E.03499
G1 X73.056 Y92.213 E.05023
G1 X72.728 Y90.645 E.05023
G1 X72.728 Y89.355 E.04042
G1 X72.919 Y88.256 E.03499
G1 X73.49 Y86.76 E.05022
G1 X74.187 Y85.675 E.04042
G1 X74.901 Y84.897 E.03311
M204 P1000
G1 X75.181 Y85.185 F9000
M204 P800
G1 F1200
G1 X75.558 Y84.818 E.01648
G1 X76.84 Y84.009 E.04753
G1 X77.8 Y83.635 E.0323
G1 X79.021 Y83.388 E.03907
G1 X79.847 Y83.35 E.02593
G1 X100.6 Y83.358 E.65071
G1 X101.834 Y83.536 E.03907
G1 X102.813 Y83.854 E.0323
G1 X103.916 Y84.435 E.03907
G1 X104.731 Y85.064 E.0323
G1 X105.574 Y85.982 E.03907
G1 X106.131 Y86.849 E.0323
G1 X106.616 Y87.997 E.03907
G1 X106.851 Y89.021 E.03294
G1 X106.905 Y90.515 E.04688
G1 X106.692 Y91.743 E.03907
G1 X106.346 Y92.713 E.0323
G1 X105.733 Y93.798 E.03907
G1 X105.081 Y94.595 E.0323
G1 X104.14 Y95.411 E.03907
G1 X103.257 Y95.943 E.0323
M73 P1 R37
G1 X102.096 Y96.395 E.03907
G1 X101.355 Y96.561 E.02381
G1 X100.397 Y96.65 E.03018
G1 X79.847 Y96.65 E.64433
G1 X78.538 Y96.543 E.04119
G1 X77.8 Y96.365 E.02381
G1 X76.84 Y95.991 E.03229
G1 X75.558 Y95.182 E.04754
G1 X74.994 Y94.673 E.02381
G1 X74.206 Y93.708 E.03907
G1 X73.819 Y93.055 E.02381
G1 X73.418 Y92.106 E.03229
G1 X73.136 Y90.893 E.03907
G1 X73.105 Y89.377 E.04753
G1 X73.28 Y88.362 E.0323
G1 X73.819 Y86.945 E.04753
G1 X74.664 Y85.687 E.04753
G1 X75.138 Y85.226 E.02071
M204 P1000
; printing object drzaknahrebenv2.stl id:0 copy 0
G1 E-2.24 F2400
;WIPE_START
G1 F7200
G1 X75.558 Y84.818 E-.18547
G1 X76.84 Y84.009 E-.48006
G1 X77.565 Y83.727 E-.24647
;WIPE_END
G1 E-.048 F2400
G1 Z.4 F720
G1 X97.005 Y86.551 F9000
G1 Z.2 F720
G1 E3.2 F1500
M204 P800
;TYPE:Support material
G1 F1200
G1 X96.585 Y87.001 E.01928
G1 X96.267 Y87.441 E.01702
G1 X96.002 Y87.914 E.01702
G1 X95.792 Y88.415 E.01702
G1 X95.64 Y88.936 E.01702
G1 X95.553 Y89.444 E.01617
G1 X95.52 Y89.986 E.01702
G1 X95.549 Y90.528 E.01702
G1 X95.64 Y91.064 E.01702
G1 X95.792 Y91.585 E.01703
G1 X96.002 Y92.086 E.01702
G1 X96.267 Y92.559 E.01702
G1 X96.585 Y92.999 E.01702
G1 X97.045 Y93.483 E.02092
G1 X96.767 Y93.79 E.01297
G1 X83.352 Y93.79 E.42062
G1 X82.992 Y93.446 E.01561
G1 X83.237 Y93.205 E.01078
G1 X83.58 Y92.784 E.01702
G1 X83.872 Y92.326 E.01702
G1 X84.1 Y91.864 E.01616
G1 X84.284 Y91.353 E.01703
G1 X84.408 Y90.824 E.01702
G1 X84.473 Y90.258 E.01788
G1 X84.471 Y89.715 E.01702
G1 X84.408 Y89.176 E.01702
G1 X84.291 Y88.673 E.01617
G1 X84.11 Y88.162 E.01702
G1 X83.872 Y87.674 E.01702
G1 X83.58 Y87.216 E.01702
G1 X83.237 Y86.795 E.01702
G1 X82.954 Y86.517 E.01244
G1 X83.232 Y86.21 E.01299
G1 X96.648 Y86.21 E.42066
G1 X96.964 Y86.512 E.0137
M204 P1000
G1 E-2.24 F2400
;WIPE_START
G1 F7200
G1 X96.648 Y86.21 E-.13837
G1 X94.205 Y86.21 E-.77363
;WIPE_END
G1 E-.048 F2400
G1 Z.4 F720
G1 X96.285 Y93.62 F9000
G1 Z.2 F720
G1 E3.2 F1500
M204 P800
G1 F1200
G1 X96.285 Y93.163 E.01434
G1 X96.002 Y92.774 E.01508
G1 X95.866 Y92.538 E.00854
G1 X95.866 Y93.451 E.02862
G1 X95.447 Y93.451 E.01314
G1 X95.447 Y91.614 E.05759
G1 X95.308 Y91.131 E.01575
G1 X95.217 Y90.604 E.01677
G1 X95.181 Y90.023 E.01824
G1 X95.216 Y89.396 E.0197
G1 X95.308 Y88.869 E.01678
G1 X95.447 Y88.386 E.01575
G1 X95.447 Y86.549 E.05759
G1 X95.866 Y86.549 E.01314
G1 X95.866 Y87.462 E.02862
G1 X96.002 Y87.226 E.00855
G1 X96.285 Y86.837 E.01508
G1 X96.285 Y86.38 E.01434
M204 P1000
G1 X95.028 Y93.62 F9000
M204 P800
G1 F1200
G1 X95.028 Y86.549 E.2217
G1 X94.609 Y86.549 E.01314
G1 X94.609 Y93.451 E.21638
G1 X94.19 Y93.451 E.01314
G1 X94.19 Y86.549 E.21638
G1 X93.771 Y86.549 E.01314
G1 X93.771 Y93.451 E.21638
G1 X93.352 Y93.451 E.01314
G1 X93.352 Y86.549 E.21638
G1 X92.933 Y86.549 E.01314
G1 X92.933 Y93.451 E.21638
G1 X92.514 Y93.451 E.01314
G1 X92.514 Y86.549 E.21638
G1 X92.095 Y86.549 E.01314
G1 X92.095 Y93.451 E.21638
G1 X91.676 Y93.451 E.01314
G1 X91.676 Y86.549 E.21638
G1 X91.257 Y86.549 E.01314
G1 X91.257 Y93.451 E.21638
G1 X90.838 Y93.451 E.01314
G1 X90.838 Y86.549 E.21638
G1 X90.419 Y86.549 E.01314
G1 X90.419 Y93.451 E.21638
G1 X90 Y93.451 E.01314
G1 X90 Y86.549 E.21638
G1 X89.581 Y86.549 E.01314
G1 X89.581 Y93.451 E.21638
G1 X89.162 Y93.451 E.01314
G1 X89.162 Y86.549 E.21638
G1 X88.743 Y86.549 E.01314
G1 X88.743 Y93.451 E.21638
G1 X88.324 Y93.451 E.01314
G1 X88.324 Y86.549 E.21638
G1 X87.905 Y86.549 E.01314
G1 X87.905 Y93.451 E.21638
G1 X87.486 Y93.451 E.01314
G1 X87.486 Y86.549 E.21638
G1 X87.067 Y86.549 E.01314
G1 X87.067 Y93.451 E.21638
G1 X86.648 Y93.451 E.01314
G1 X86.648 Y86.549 E.21638
G1 X86.229 Y86.549 E.01314
G1 X86.229 Y93.451 E.21638
G1 X85.81 Y93.451 E.01314
G1 X85.81 Y86.549 E.21638
G1 X85.391 Y86.549 E.01314
G1 X85.391 Y93.451 E.21638
G1 X84.972 Y93.451 E.01314
G1 X84.972 Y86.549 E.21638
G1 X84.553 Y86.549 E.01314
G1 X84.553 Y88.393 E.05782
G1 X84.408 Y87.995 E.01328
G1 X84.134 Y87.451 E.01911
G1 X84.134 Y86.549 E.02827
G1 X83.715 Y86.549 E.01314
G1 X83.715 Y87.114 E.0177
M204 P1000
G1 E-2.24 F2400
;WIPE_START
G1 F7200
G1 X83.715 Y86.549 E-.17875
G1 X84.134 Y86.549 E-.13268
G1 X84.134 Y87.451 E-.28554
G1 X84.408 Y87.995 E-.19297
G1 X84.54 Y88.358 E-.12206
;WIPE_END
G1 E-.048 F2400
G1 Z.4 F720
G1 X84.553 Y93.62 F9000
G1 Z.2 F720
G1 E3.2 F1500
M204 P800
G1 F1200
G1 X84.553 Y91.607 E.06314
G1 X84.408 Y92.005 E.01328
G1 X84.134 Y92.549 E.01911
G1 X84.134 Y93.451 E.02827
G1 X83.715 Y93.451 E.01314
G1 X83.715 Y92.886 E.0177
M204 P1000
G1 E-2.24 F2400
;WIPE_START
G1 F7200
G1 X83.715 Y93.451 E-.17876
G1 X84.134 Y93.451 E-.13268
G1 X84.134 Y92.549 E-.28555
G1 X84.408 Y92.005 E-.19296
G1 X84.54 Y91.642 E-.12206
;WIPE_END
G1 E-.048 F2400
G1 Z.4 F720
G1 X96.811 Y90.396 F9000
G1 Z.2 F720
G1 E3.2 F1500
M204 P800
;TYPE:Perimeter
G1 F1200
G1 X96.788 Y90 E.01242
G1 X96.811 Y89.603 E.01248
G1 X96.879 Y89.21 E.01248
G1 X96.991 Y88.828 E.01248
G1 X97.146 Y88.462 E.01248
G1 X97.342 Y88.115 E.01248
G1 X97.576 Y87.793 E.01248
G1 X97.845 Y87.5 E.01248
G1 X98.146 Y87.239 E.01248
G1 X98.475 Y87.014 E.01248
G1 X98.827 Y86.828 E.01248
G1 X99.198 Y86.684 E.01248
G1 X99.583 Y86.583 E.01248
G1 X99.977 Y86.526 E.01248
G1 X100.375 Y86.515 E.01248
G1 X100.771 Y86.549 E.01248
G1 X101.161 Y86.628 E.01248
G1 X101.54 Y86.751 E.01248
G1 X101.902 Y86.916 E.01248
G1 X102.243 Y87.122 E.01248
G1 X102.558 Y87.365 E.01248
G1 X102.844 Y87.642 E.01248
G1 X103.096 Y87.951 E.01248
G1 X103.311 Y88.285 E.01248
G1 X103.487 Y88.643 E.01248
G1 X103.62 Y89.018 E.01248
G1 X103.711 Y89.405 E.01248
G1 X103.756 Y89.801 E.01248
G1 X103.756 Y90.199 E.01248
G1 X103.711 Y90.595 E.01248
G1 X103.62 Y90.982 E.01248
G1 X103.487 Y91.357 E.01248
G1 X103.311 Y91.714 E.01248
G1 X103.096 Y92.049 E.01248
G1 X102.844 Y92.358 E.01248
G1 X102.558 Y92.635 E.01248
G1 X102.243 Y92.878 E.01248
G1 X101.902 Y93.084 E.01248
G1 X101.54 Y93.249 E.01248
G1 X101.161 Y93.372 E.01248
G1 X100.771 Y93.451 E.01248
G1 X100.375 Y93.485 E.01248
G1 X99.977 Y93.474 E.01248
G1 X99.583 Y93.417 E.01248
G1 X99.198 Y93.316 E.01248
G1 X98.827 Y93.172 E.01248
G1 X98.475 Y92.986 E.01248
G1 X98.146 Y92.761 E.01248
G1 X97.845 Y92.5 E.01248
G1 X97.576 Y92.207 E.01248
G1 X97.342 Y91.885 E.01248
G1 X97.146 Y91.538 E.01248
G1 X96.991 Y91.172 E.01248
G1 X96.879 Y90.79 E.01248
G1 X96.821 Y90.455 E.01066
M204 P1000
G1 X96.511 Y90.875 F9000
M204 P800
;TYPE:External perimeter
G1 F1200
G1 X96.436 Y90.441 E.01383
G1 X96.411 Y90 E.01383
G1 X96.436 Y89.56 E.01383
G1 X96.511 Y89.125 E.01383
G1 X96.635 Y88.701 E.01383
G1 X96.807 Y88.295 E.01383
G1 X97.024 Y87.911 E.01383
G1 X97.283 Y87.554 E.01383
G1 X97.582 Y87.229 E.01383
G1 X97.915 Y86.94 E.01383
G1 X98.279 Y86.691 E.01383
G1 X98.67 Y86.485 E.01383
G1 X99.081 Y86.325 E.01383
G1 X99.508 Y86.213 E.01383
G1 X99.944 Y86.15 E.01383
G1 X100.385 Y86.137 E.01383
G1 X100.825 Y86.175 E.01383
G1 X101.257 Y86.263 E.01383
G1 X101.677 Y86.399 E.01383
G1 X102.078 Y86.582 E.01383
G1 X102.456 Y86.81 E.01383
G1 X102.806 Y87.08 E.01383
G1 X103.122 Y87.387 E.01383
G1 X103.401 Y87.729 E.01383
G1 X103.64 Y88.1 E.01383
G1 X103.835 Y88.496 E.01383
G1 X103.983 Y88.911 E.01383
G1 X104.083 Y89.341 E.01383
G1 X104.133 Y89.779 E.01383
G1 X104.133 Y90.221 E.01383
G1 X104.083 Y90.659 E.01383
G1 X103.983 Y91.089 E.01383
G1 X103.835 Y91.504 E.01383
G1 X103.64 Y91.9 E.01383
G1 X103.401 Y92.271 E.01383
G1 X103.122 Y92.613 E.01383
G1 X102.806 Y92.92 E.01383
G1 X102.456 Y93.19 E.01383
G1 X102.078 Y93.418 E.01383
G1 X101.677 Y93.601 E.01383
G1 X101.257 Y93.737 E.01383
G1 X100.825 Y93.825 E.01383
G1 X100.385 Y93.863 E.01383
G1 X99.944 Y93.85 E.01383
G1 X99.508 Y93.787 E.01383
G1 X99.081 Y93.675 E.01383
G1 X98.67 Y93.515 E.01383
G1 X98.279 Y93.309 E.01383
G1 X97.915 Y93.06 E.01383
G1 X97.582 Y92.771 E.01383
G1 X97.283 Y92.446 E.01383
G1 X97.024 Y92.089 E.01383
G1 X96.807 Y91.705 E.01383
G1 X96.635 Y91.299 E.01383
G1 X96.528 Y90.933 E.01195
M204 P1000
G1 X96.803 Y90.602 F9000
G1 E-2.24 F2400
;WIPE_START
G1 F7200
G1 X96.436 Y90.441 E-.15861
G1 X96.411 Y90 E-.13972
G1 X96.436 Y89.56 E-.13972
G1 X96.511 Y89.125 E-.13972
G1 X96.635 Y88.701 E-.13972
G1 X96.807 Y88.295 E-.13972
G1 X96.892 Y88.144 E-.05479
;WIPE_END
G1 E-.048 F2400
G1 Z.4 F720
G1 X103.295 Y88.509 F9000
G1 Z.2 F720
G1 E3.2 F1500
M204 P800
;TYPE:Solid infill
;WIDTH:0.441802
G1 F1200
G1 X102.338 Y87.552 E.04487
G1 X102.083 Y87.356 E.01068
G1 X101.77 Y87.167 E.01213
G1 X101.437 Y87.015 E.01213
G1 X101.14 Y86.918 E.01036
G1 X103.358 Y89.136 E.10401
G1 X103.431 Y89.454 E.01083
G1 X103.473 Y89.815 E.01207
G1 X100.464 Y86.806 E.14114
G1 X99.914 Y86.821 E.01823
G1 X103.453 Y90.359 E.16598
G1 X103.431 Y90.546 E.00624
G1 X103.364 Y90.835 E.00983
G1 X99.442 Y86.912 E.184
G1 X99.021 Y87.056 E.01473
G1 X103.221 Y91.256 E.197
G1 X103.03 Y91.629 E.0139
G1 X98.645 Y87.244 E.20567
G1 X98.309 Y87.472 E.01347
G1 X102.801 Y91.964 E.21069
G1 X102.536 Y92.263 E.01325
G1 X98.011 Y87.738 E.21225
G1 X97.747 Y88.038 E.01326
G1 X102.236 Y92.527 E.21053
G1 X101.9 Y92.755 E.01347
M73 P2 R37
G1 X97.52 Y88.375 E.20544
G1 X97.331 Y88.75 E.01394
G1 X101.525 Y92.945 E.19674
G1 X101.108 Y93.092 E.01467
G1 X97.186 Y89.169 E.184
G1 X97.092 Y89.64 E.01591
G1 X100.632 Y93.179 E.16602
G1 X100.366 Y93.202 E.00883
G1 X100.082 Y93.194 E.00943
G1 X97.083 Y90.194 E.1407
G1 X97.092 Y90.365 E.00567
G1 X97.199 Y90.874 E.01725
G1 X99.401 Y93.077 E.10333
G1 X98.944 Y92.914 E.0161
G1 X98.621 Y92.743 E.01213
G1 X98.319 Y92.537 E.01213
G1 X98.154 Y92.394 E.00721
G1 X97.247 Y91.487 E.04256
M204 P1000
G1 E-2.24 F2400
;WIPE_START
G1 F7200
G1 X98.154 Y92.394 E-.40631
G1 X98.319 Y92.537 E-.06888
G1 X98.621 Y92.743 E-.11582
G1 X98.944 Y92.914 E-.11583
G1 X99.401 Y93.077 E-.15372
G1 X99.287 Y92.962 E-.05144
;WIPE_END
G1 E-.048 F2400
G1 Z.4 F720
G1 X83.16 Y90.596 F9000
G1 Z.2 F720
G1 E3.2 F1500
M204 P800
;TYPE:Perimeter
;WIDTH:0.42
G1 F1200
G1 X83.07 Y90.982 E.01242
G1 X82.937 Y91.357 E.01248
G1 X82.761 Y91.714 E.01248
G1 X82.546 Y92.049 E.01248
G1 X82.294 Y92.358 E.01248
G1 X82.008 Y92.635 E.01248
G1 X81.693 Y92.878 E.01248
G1 X81.352 Y93.084 E.01248
G1 X80.99 Y93.249 E.01248
G1 X80.611 Y93.372 E.01248
G1 X80.221 Y93.451 E.01248
G1 X79.825 Y93.485 E.01248
G1 X79.427 Y93.474 E.01248
G1 X79.033 Y93.417 E.01248
G1 X78.648 Y93.316 E.01248
G1 X78.277 Y93.172 E.01248
G1 X77.925 Y92.986 E.01248
G1 X77.596 Y92.761 E.01248
G1 X77.295 Y92.5 E.01248
G1 X77.026 Y92.207 E.01248
G1 X76.792 Y91.885 E.01248
G1 X76.596 Y91.538 E.01248
G1 X76.441 Y91.172 E.01248
G1 X76.329 Y90.79 E.01248
G1 X76.261 Y90.397 E.01248
G1 X76.238 Y90 E.01248
G1 X76.261 Y89.603 E.01248
G1 X76.329 Y89.21 E.01248
G1 X76.441 Y88.828 E.01248
G1 X76.596 Y88.462 E.01248
G1 X76.792 Y88.115 E.01248
G1 X77.026 Y87.793 E.01248
G1 X77.295 Y87.5 E.01248
G1 X77.596 Y87.239 E.01248
G1 X77.925 Y87.014 E.01248
G1 X78.277 Y86.828 E.01248
G1 X78.648 Y86.684 E.01248
G1 X79.033 Y86.583 E.01248
G1 X79.427 Y86.526 E.01248
G1 X79.825 Y86.515 E.01248
G1 X80.221 Y86.549 E.01248
G1 X80.611 Y86.628 E.01248
G1 X80.99 Y86.751 E.01248
G1 X81.352 Y86.916 E.01248
G1 X81.693 Y87.122 E.01248
G1 X82.008 Y87.365 E.01248
G1 X82.294 Y87.642 E.01248
G1 X82.546 Y87.951 E.01248
G1 X82.761 Y88.286 E.01248
G1 X82.937 Y88.643 E.01248
G1 X83.07 Y89.018 E.01248
G1 X83.161 Y89.405 E.01248
G1 X83.206 Y89.801 E.01248
G1 X83.206 Y90.199 E.01248
G1 X83.167 Y90.537 E.01066
M204 P1000
G1 X83.583 Y90.221 F9000
M204 P800
;TYPE:External perimeter
G1 F1200
G1 X83.533 Y90.659 E.01383
G1 X83.433 Y91.089 E.01383
G1 X83.285 Y91.504 E.01383
G1 X83.09 Y91.9 E.01383
G1 X82.851 Y92.271 E.01383
G1 X82.572 Y92.613 E.01383
G1 X82.256 Y92.92 E.01383
G1 X81.906 Y93.19 E.01383
G1 X81.528 Y93.418 E.01383
G1 X81.127 Y93.601 E.01383
G1 X80.707 Y93.737 E.01383
G1 X80.275 Y93.825 E.01383
G1 X79.835 Y93.863 E.01383
G1 X79.394 Y93.85 E.01383
G1 X78.958 Y93.787 E.01383
G1 X78.531 Y93.675 E.01383
G1 X78.12 Y93.515 E.01383
G1 X77.729 Y93.309 E.01383
G1 X77.365 Y93.06 E.01383
G1 X77.032 Y92.771 E.01383
G1 X76.733 Y92.446 E.01383
G1 X76.474 Y92.089 E.01383
G1 X76.257 Y91.705 E.01383
G1 X76.085 Y91.299 E.01383
G1 X75.961 Y90.875 E.01383
G1 X75.886 Y90.44 E.01383
G1 X75.861 Y90 E.01383
G1 X75.886 Y89.56 E.01383
G1 X75.961 Y89.125 E.01383
G1 X76.085 Y88.701 E.01383
G1 X76.257 Y88.295 E.01383
G1 X76.474 Y87.911 E.01383
G1 X76.733 Y87.554 E.01383
G1 X77.032 Y87.229 E.01383
G1 X77.365 Y86.94 E.01383
G1 X77.729 Y86.691 E.01383
G1 X78.12 Y86.485 E.01383
G1 X78.531 Y86.325 E.01383
G1 X78.958 Y86.213 E.01383
G1 X79.394 Y86.15 E.01383
G1 X79.835 Y86.137 E.01383
G1 X80.275 Y86.175 E.01383
G1 X80.707 Y86.263 E.01383
G1 X81.127 Y86.399 E.01383
G1 X81.528 Y86.582 E.01383
G1 X81.906 Y86.81 E.01383
G1 X82.256 Y87.08 E.01383
G1 X82.572 Y87.387 E.01383
G1 X82.851 Y87.729 E.01383
G1 X83.09 Y88.1 E.01383
G1 X83.285 Y88.496 E.01383
